; HEADER_BLOCK_START
; generated by AnycubicSlicerNext 1.1.1 on 2026-01-31 at 00:19:45
; total layer number: 25
; filament_density: 1.24
; filament_diameter: 1.75
; max_z_height: 5.04
; HEADER_BLOCK_END

; THUMBNAIL_BLOCK_START

;
; THUMBNAIL_BLOCK_END

; external perimeters extrusion width = 0.42mm
; perimeters extrusion width = 0.45mm
; infill extrusion width = 0.45mm
; solid infill extrusion width = 0.42mm
; top infill extrusion width = 0.42mm
; support material extrusion width = 0.40mm
; first layer extrusion width = 0.50mm

; EXECUTABLE_BLOCK_START
M201 X2000 Y2000 Z800 E2000
M203 X300 Y300 Z8 E100
M204 P2000 R2000 T2000
M205 X10.00 Y10.00 Z2.00 E5.00 ; sets the jerk limits, mm/sec
;TYPE:Custom
G90 ; use absolute coordinates
M83 ; extruder relative mode
M104 S220 ; set extruder temp
M140 S60 ; set bed temp
M190 S60 ; wait for bed temp
M109 S220 ; wait for extruder temp
G28                                        ; move X/Y/Z to min endstops
G1 Z0.28                                   ; lift nozzle a bit 
G92 E0 
G1 Y3 F1800                                    ; zero the extruded length 
G1 X60  E25 F500                       ; Extrude 25mm of filament in a 5cm line. 
G92 E0                                     ; zero the extruded length again 
G1 E-2 F500                                ; Retract a little 
G1 X70 F4000                              ; Quickly wipe away from the filament line
M117
G90
G21
M82 ; use absolute distances for extrusion
G92 E0
; filament start gcode
M106 S0
;LAYER_CHANGE
;Z:0.24
;HEIGHT:0.24
; BEFORE_LAYER_CHANGE 0 @ 0.24mm
G1 E-2.5 F6000
G92 E0
; AFTER_LAYER_CHANGE 0 @ 0.24mm
;_SET_FAN_SPEED_CHANGING_LAYER
M204 S500
; printing object Laser Stand - Ipad V2-BodyPocket010.stl id:8746391108560773376 copy 0
G1 X88.667 Y77.114 F18000
G1 Z.24
G1 E2.5 F6000
;TYPE:Brim
;WIDTH:0.5
G1 F3000
G1 X89.116 Y76.664 E2.52759
G1 X89.624 Y76.288 E2.55504
G1 X90.443 Y75.885 E2.59468
G1 X91.05 Y75.697 E2.62223
G1 X91.683 Y75.601 E2.65
G1 X127.992 Y75.589 E4.22613
G1 X128.634 Y75.637 E4.25409
G1 X129.256 Y75.779 E4.28177
G1 X129.702 Y75.944 E4.30243
G1 X130.376 Y76.29 E4.3353
G1 X130.886 Y76.667 E4.36284
G1 X131.336 Y77.116 E4.39043
G1 X131.713 Y77.625 E4.41793
G1 X132.076 Y78.344 E4.45288
G1 X132.303 Y79.051 E4.48513
G1 X132.399 Y79.683 E4.51285
G1 X132.411 Y139.992 E7.13078
G1 X132.363 Y140.634 E7.15874
G1 X132.221 Y141.255 E7.18637
G1 X132.009 Y141.81 E7.21217
G1 X131.71 Y142.375 E7.2399
G1 X131.333 Y142.886 E7.2675
G1 X130.884 Y143.336 E7.29509
G1 X130.375 Y143.713 E7.32259
G1 X129.656 Y144.076 E7.35754
G1 X128.949 Y144.303 E7.38979
G1 X128.317 Y144.399 E7.41751
G1 X127.996 Y144.411 E7.43148
G1 X92.008 Y144.411 E8.99364
G1 X91.366 Y144.363 E9.0216
G1 X90.745 Y144.221 E9.04923
G1 X90.19 Y144.009 E9.07503
G1 X89.625 Y143.71 E9.10277
G1 X89.114 Y143.333 E9.13036
G1 X88.664 Y142.884 E9.15795
G1 X88.287 Y142.375 E9.18545
G1 X87.924 Y141.656 E9.2204
G1 X87.697 Y140.949 E9.25265
G1 X87.601 Y140.317 E9.28037
G1 X87.589 Y139.996 E9.29435
G1 X87.589 Y80.008 E11.89831
G1 X87.637 Y79.366 E11.92627
G1 X87.779 Y78.745 E11.9539
G1 X87.991 Y78.19 E11.9797
G1 X88.29 Y77.625 E12.00744
G1 X88.643 Y77.146 E12.03329
G1 X89.005 Y77.413 F18000
G1 F3000
G1 X89.015 Y77.4 E12.034
G1 X89.418 Y76.998 E12.05868
G1 X89.869 Y76.667 E12.083
G1 X90.62 Y76.299 E12.11927
G1 X91.16 Y76.134 E12.1438
G1 X91.726 Y76.05 E12.16865
G1 X127.98 Y76.038 E13.74236
G1 X128.577 Y76.084 E13.76835
G1 X129.119 Y76.208 E13.79248
G1 X129.513 Y76.353 E13.81073
G1 X130.129 Y76.668 E13.84075
G1 X130.6 Y77.015 E13.86616
G1 X130.988 Y77.403 E13.88996
G1 X131.323 Y77.852 E13.9143
G1 X131.655 Y78.505 E13.94608
G1 X131.862 Y79.143 E13.97522
G1 X131.95 Y79.726 E14.00081
G1 X131.962 Y139.97 E16.61589
G1 X131.919 Y140.557 E16.64144
G1 X131.793 Y141.115 E16.66625
G1 X131.596 Y141.631 E16.69026
G1 X131.334 Y142.127 E16.71458
G1 X130.985 Y142.6 E16.74013
G1 X130.582 Y143.002 E16.7648
G1 X130.128 Y143.335 E16.78925
G1 X129.495 Y143.655 E16.82005
G1 X128.857 Y143.862 E16.84919
G1 X128.283 Y143.95 E16.87439
G1 X127.99 Y143.962 E16.88712
G1 X92.03 Y143.962 E18.44807
G1 X91.443 Y143.919 E18.47363
G1 X90.885 Y143.793 E18.49844
G1 X90.369 Y143.596 E18.52244
G1 X89.873 Y143.334 E18.54676
G1 X89.4 Y142.985 E18.57231
G1 X88.998 Y142.582 E18.59699
G1 X88.665 Y142.128 E18.62143
G1 X88.345 Y141.495 E18.65223
G1 X88.138 Y140.857 E18.68137
G1 X88.05 Y140.283 E18.70657
G1 X88.038 Y139.985 E18.71952
G1 X88.038 Y80.03 E21.32206
G1 X88.081 Y79.443 E21.34761
G1 X88.207 Y78.885 E21.37242
G1 X88.404 Y78.369 E21.39643
G1 X88.666 Y77.873 E21.42075
G1 X88.982 Y77.445 E21.44385
G1 X89.344 Y77.712 F18000
G1 F3000
G1 X89.363 Y77.686 E21.44526
G1 X89.719 Y77.334 E21.46697
G1 X90.113 Y77.047 E21.48816
G1 X90.795 Y76.715 E21.52109
G1 X91.269 Y76.571 E21.54259
G1 X91.77 Y76.498 E21.56453
G1 X127.968 Y76.487 E23.13585
G1 X128.519 Y76.531 E23.15985
G1 X128.983 Y76.637 E23.18049
G1 X129.326 Y76.762 E23.19633
G1 X129.883 Y77.046 E23.22347
G1 X130.314 Y77.363 E23.24674
G1 X130.654 Y77.705 E23.26765
G1 X130.934 Y78.08 E23.28798
G1 X131.235 Y78.667 E23.3166
G1 X131.42 Y79.236 E23.34259
G1 X131.502 Y79.77 E23.36604
G1 X131.514 Y139.948 E25.97827
G1 X131.475 Y140.481 E26.00145
G1 X131.365 Y140.975 E26.02343
G1 X131.189 Y141.438 E26.04492
G1 X130.958 Y141.879 E26.06653
G1 X130.637 Y142.314 E26.09
G1 X130.281 Y142.666 E26.11172
G1 X129.883 Y142.957 E26.13313
G1 X129.333 Y143.234 E26.15986
G1 X128.763 Y143.421 E26.18591
G1 X128.247 Y143.502 E26.20859
G1 X127.983 Y143.514 E26.22003
G1 X92.052 Y143.514 E27.77977
G1 X91.519 Y143.475 E27.80296
G1 X91.025 Y143.365 E27.82493
G1 X90.562 Y143.189 E27.84643
G1 X90.121 Y142.958 E27.86803
G1 X89.686 Y142.637 E27.8915
G1 X89.334 Y142.281 E27.91322
G1 X89.043 Y141.883 E27.93463
G1 X88.766 Y141.333 E27.96136
G1 X88.579 Y140.763 E27.98741
G1 X88.498 Y140.247 E28.01009
G1 X88.486 Y139.973 E28.02199
G1 X88.486 Y80.052 E30.62308
G1 X88.525 Y79.519 E30.64626
G1 X88.635 Y79.025 E30.66824
G1 X88.811 Y78.562 E30.68973
G1 X89.042 Y78.121 E30.71133
G1 X89.32 Y77.744 E30.73167
G1 X89.682 Y78.011 F18000
G1 F3000
G1 X89.711 Y77.973 E30.73375
G1 X90.018 Y77.671 E30.75246
G1 X90.356 Y77.428 E30.77052
G1 X90.97 Y77.131 E30.80013
G1 X91.377 Y77.009 E30.81858
G1 X91.812 Y76.947 E30.83765
G1 X127.955 Y76.936 E32.40658
G1 X128.46 Y76.978 E32.42858
G1 X128.847 Y77.066 E32.44581
G1 X129.139 Y77.171 E32.45924
G1 X129.636 Y77.424 E32.48348
G1 X130.028 Y77.712 E32.50458
G1 X130.307 Y77.991 E32.52172
G1 X130.545 Y78.309 E32.53897
G1 X130.814 Y78.831 E32.56444
G1 X130.979 Y79.33 E32.58726
G1 X131.053 Y79.815 E32.60855
G1 X131.065 Y139.927 E35.21793
G1 X131.03 Y140.406 E35.23877
G1 X130.936 Y140.837 E35.25793
G1 X130.783 Y141.246 E35.2769
G1 X130.581 Y141.631 E35.29575
G1 X130.289 Y142.027 E35.31712
G1 X129.982 Y142.33 E35.33584
G1 X129.638 Y142.578 E35.35423
G1 X129.171 Y142.814 E35.37698
G1 X128.668 Y142.98 E35.39996
G1 X128.209 Y143.054 E35.42012
G1 X127.976 Y143.065 E35.43024
G1 X92.073 Y143.065 E36.98875
G1 X91.594 Y143.03 E37.00959
G1 X91.163 Y142.936 E37.02876
G1 X90.754 Y142.783 E37.04772
G1 X90.369 Y142.581 E37.06657
G1 X89.973 Y142.289 E37.08795
G1 X89.67 Y141.982 E37.10667
G1 X89.422 Y141.638 E37.12505
G1 X89.186 Y141.171 E37.1478
G1 X89.02 Y140.668 E37.17078
G1 X88.946 Y140.21 E37.19093
G1 X88.935 Y139.96 E37.20176
G1 X88.935 Y80.073 E39.80138
G1 X88.97 Y79.594 E39.82222
G1 X89.064 Y79.163 E39.84138
G1 X89.217 Y78.754 E39.86035
G1 X89.419 Y78.369 E39.8792
G1 X89.659 Y78.044 E39.89675
G1 X90.021 Y78.311 F18000
G1 F3000
G1 X90.058 Y78.26 E39.89949
G1 X90.316 Y78.009 E39.91514
G1 X90.597 Y77.809 E39.93006
G1 X91.143 Y77.547 E39.95638
G1 X91.483 Y77.447 E39.97178
G1 X91.853 Y77.395 E39.98799
G1 X127.943 Y77.385 E41.55457
G1 X128.401 Y77.424 E41.57454
G1 X128.713 Y77.495 E41.58844
G1 X128.952 Y77.581 E41.59947
G1 X129.391 Y77.802 E41.62078
G1 X129.742 Y78.06 E41.6397
G1 X129.96 Y78.279 E41.65311
G1 X130.157 Y78.539 E41.66729
G1 X130.395 Y78.995 E41.68961
G1 X130.538 Y79.424 E41.70923
G1 X130.605 Y79.859 E41.72833
G1 X130.617 Y139.906 E44.33487
G1 X130.586 Y140.332 E44.35341
G1 X130.507 Y140.7 E44.36977
G1 X130.375 Y141.055 E44.3862
G1 X130.205 Y141.383 E44.40226
G1 X129.942 Y141.74 E44.42149
G1 X129.683 Y141.992 E44.43716
G1 X129.395 Y142.198 E44.45255
G1 X128.989 Y142.402 E44.47227
G1 X128.571 Y142.539 E44.49134
G1 X128.17 Y142.606 E44.509
G1 X127.963 Y142.616 E44.51802
G1 X92.094 Y142.617 E46.07501
G1 X91.668 Y142.586 E46.09355
G1 X91.3 Y142.507 E46.10991
G1 X90.945 Y142.375 E46.12634
G1 X90.617 Y142.205 E46.1424
G1 X90.26 Y141.942 E46.16163
G1 X90.008 Y141.683 E46.17731
G1 X89.802 Y141.395 E46.19269
G1 X89.598 Y140.989 E46.21241
G1 X89.461 Y140.571 E46.23149
G1 X89.394 Y140.171 E46.24911
G1 X89.383 Y139.947 E46.25884
G1 X89.383 Y80.094 E48.85696
G1 X89.414 Y79.668 E48.8755
G1 X89.493 Y79.3 E48.89186
G1 X89.625 Y78.945 E48.90829
G1 X89.795 Y78.617 E48.92435
G1 X89.997 Y78.343 E48.93911
G1 X90.363 Y78.627 F18000
G1 F3000
G1 X90.449 Y78.517 E48.94517
G1 X90.767 Y78.244 E48.96338
G1 X91.167 Y78.021 E48.98325
G1 X91.466 Y77.924 E48.99688
G1 X92.045 Y77.832 E49.02234
G1 X127.965 Y77.832 E50.5816
G1 X128.311 Y77.868 E50.59669
G1 X128.685 Y77.966 E50.61348
G1 X129.179 Y78.214 E50.63746
G1 X129.531 Y78.496 E50.65703
G1 X129.618 Y78.593 E50.66269
G1 X129.869 Y78.951 E50.68168
G1 X129.924 Y79.054 E50.68671
G1 X130.077 Y79.471 E50.70602
G1 X130.168 Y80.045 E50.73125
G1 X130.168 Y139.965 E53.33231
G1 X130.132 Y140.311 E53.3474
G1 X130.034 Y140.685 E53.36419
G1 X129.786 Y141.179 E53.38817
G1 X129.504 Y141.531 E53.40775
G1 X129.407 Y141.618 E53.4134
G1 X129.049 Y141.869 E53.43239
G1 X128.946 Y141.924 E53.43742
G1 X128.529 Y142.077 E53.45673
G1 X127.955 Y142.168 E53.48196
G1 X92.035 Y142.168 E55.04121
G1 X91.689 Y142.132 E55.05631
G1 X91.315 Y142.034 E55.0731
G1 X90.821 Y141.786 E55.09708
G1 X90.469 Y141.504 E55.11665
G1 X90.382 Y141.407 E55.12231
G1 X90.131 Y141.049 E55.1413
G1 X90.076 Y140.946 E55.14633
G1 X89.923 Y140.529 E55.16564
G1 X89.832 Y139.955 E55.19087
G1 X89.832 Y80.036 E57.79187
G1 X89.885 Y79.604 E57.81077
G1 X90.011 Y79.202 E57.82905
G1 X90.216 Y78.817 E57.848
G1 X90.339 Y78.659 E57.85668
G1 X90.681 Y78.94 F18000
G1 F3000
G1 X90.801 Y78.794 E57.86489
G1 X91.058 Y78.585 E57.87924
G1 X91.307 Y78.447 E57.89162
G1 X91.533 Y78.367 E57.90205
G1 X92.034 Y78.28 E57.92412
G1 X127.972 Y78.28 E59.48414
G1 X128.268 Y78.315 E59.49705
G1 X128.576 Y78.401 E59.51095
G1 X128.978 Y78.615 E59.53072
G1 X129.245 Y78.842 E59.54594
G1 X129.505 Y79.214 E59.56565
G1 X129.634 Y79.536 E59.58069
G1 X129.72 Y80.034 E59.60263
G1 X129.72 Y139.972 E62.20446
G1 X129.685 Y140.268 E62.21737
G1 X129.599 Y140.576 E62.23127
G1 X129.385 Y140.978 E62.25104
G1 X129.158 Y141.245 E62.26627
G1 X128.786 Y141.505 E62.28597
G1 X128.464 Y141.634 E62.30101
G1 X127.966 Y141.72 E62.32296
G1 X92.028 Y141.72 E63.88298
G1 X91.732 Y141.685 E63.89589
G1 X91.424 Y141.599 E63.90979
G1 X91.022 Y141.385 E63.92956
G1 X90.755 Y141.158 E63.94478
G1 X90.495 Y140.786 E63.96448
G1 X90.366 Y140.464 E63.97952
G1 X90.28 Y139.966 E64.00147
G1 X90.28 Y80.028 E66.6033
G1 X90.315 Y79.732 E66.61621
G1 X90.401 Y79.424 E66.63011
G1 X90.617 Y79.017 E66.6501
G1 X90.655 Y78.971 E66.6527
G1 X91.011 Y79.231 F18000
G1 F3000
G1 X91.085 Y79.141 E66.65778
G1 X91.277 Y78.977 E66.66874
G1 X91.466 Y78.866 E66.67825
G1 X91.61 Y78.809 E66.68498
G1 X92.023 Y78.729 E66.70323
G1 X127.98 Y78.729 E68.26409
G1 X128.217 Y78.76 E68.27447
G1 X128.457 Y78.833 E68.28535
G1 X128.765 Y79.009 E68.30075
G1 X128.947 Y79.176 E68.31145
G1 X129.135 Y79.469 E68.32657
G1 X129.191 Y79.61 E68.33317
G1 X129.271 Y80.023 E68.35142
G1 X129.271 Y139.98 E70.95409
G1 X129.24 Y140.217 E70.96447
G1 X129.167 Y140.457 E70.97535
G1 X128.991 Y140.765 E70.99074
G1 X128.824 Y140.947 E71.00145
G1 X128.531 Y141.135 E71.01656
G1 X128.39 Y141.191 E71.02317
G1 X127.977 Y141.271 E71.04142
G1 X92.02 Y141.271 E72.60228
G1 X91.783 Y141.24 E72.61266
G1 X91.543 Y141.167 E72.62354
G1 X91.235 Y140.991 E72.63893
G1 X91.053 Y140.824 E72.64964
G1 X90.865 Y140.531 E72.66475
G1 X90.809 Y140.39 E72.67136
G1 X90.729 Y139.977 E72.68961
G1 X90.729 Y80.02 E75.29227
G1 X90.76 Y79.783 E75.30265
G1 X90.833 Y79.543 E75.31353
G1 X90.991 Y79.266 E75.32737
G1 X91.369 Y79.504 F18000
G1 F3000
G1 X91.393 Y79.466 E75.32933
G1 X91.493 Y79.37 E75.33538
G1 X91.702 Y79.247 E75.34586
G1 X92.01 Y79.177 E75.35959
G1 X127.989 Y79.177 E76.92139
G1 X128.152 Y79.204 E76.92857
G1 X128.326 Y79.262 E76.93652
G1 X128.534 Y79.393 E76.94718
G1 X128.63 Y79.493 E76.95323
G1 X128.753 Y79.702 E76.96372
G1 X128.823 Y80.01 E76.97744
G1 X128.823 Y139.989 E79.58105
G1 X128.796 Y140.152 E79.58823
G1 X128.738 Y140.326 E79.59618
G1 X128.607 Y140.534 E79.60684
G1 X128.507 Y140.63 E79.61289
G1 X128.298 Y140.753 E79.62337
G1 X127.99 Y140.823 E79.6371
G1 X92.011 Y140.823 E81.19891
G1 X91.848 Y140.796 E81.20609
G1 X91.674 Y140.738 E81.21404
G1 X91.466 Y140.607 E81.2247
G1 X91.37 Y140.507 E81.23075
G1 X91.247 Y140.298 E81.24123
G1 X91.177 Y139.99 E81.25496
G1 X91.177 Y80.011 E83.85857
G1 X91.204 Y79.848 E83.86574
G1 X91.262 Y79.674 E83.8737
G1 X91.347 Y79.538 E83.88066
G1 X91.692 Y79.8 F18000
G1 F3000
G1 X91.816 Y79.681 E83.88811
G1 X92 Y79.626 E83.89646
G1 X128 Y79.626 E85.45917
G1 X128.2 Y79.692 E85.4683
G1 X128.319 Y79.816 E85.47575
G1 X128.374 Y80 E85.48409
G1 X128.374 Y140 E88.08861
G1 X128.308 Y140.2 E88.09774
G1 X128.184 Y140.319 E88.10519
G1 X128 Y140.374 E88.11353
G1 X92 Y140.374 E89.67624
G1 X91.8 Y140.308 E89.68537
G1 X91.681 Y140.184 E89.69282
G1 X91.626 Y140 E89.70117
G1 X91.626 Y80 E92.30568
G1 X91.68 Y79.838 E92.31308
G1 E90.56308 F6000
;WIPE_START
G1 F3000
G1 X91.816 Y79.681 E90.40715
G1 X92 Y79.626 E90.26293
G1 X92.6 Y79.626 E89.81307
;WIPE_END
G92 E0
G1 X127.675 Y124.508 F18000
G1 E2.5 F6000
;TYPE:Outer wall
G1 F3000
G1 X127.675 Y139.675 E3.15837
G1 X92.325 Y139.675 E4.69286
G1 X92.325 Y80.325 E7.26916
G1 X127.675 Y80.325 E8.80365
G1 X127.675 Y124.448 E10.71897
G1 X127.227 Y124.508 F18000
;TYPE:Inner wall
G1 F3000
G1 X127.227 Y139.227 E11.35787
G1 X92.773 Y139.227 E12.85343
G1 X92.773 Y80.773 E15.39079
G1 X127.227 Y80.773 E16.88634
G1 X127.227 Y124.448 E18.7822
G1 E17.0322 F6000
;WIPE_START
G1 F3000
G1 X127.227 Y125.448 E16.2822
;WIPE_END
G92 E0
G1 X120.819 Y86.791 F18000
G1 E2.5 F6000
;TYPE:Outer wall
G1 F3000
G1 X120.749 Y86.705 E2.50482
G3 X122.789 Y82.183 I2.251 J-1.706 E2.76776
G1 X122.93 Y82.176 E2.77387
G3 X120.93 Y86.921 I.07 J2.824 E3.26301
G1 X120.858 Y86.837 E3.26781
G1 X120.476 Y87.079 F18000
;TYPE:Inner wall
G1 F3000
G1 X120.391 Y86.976 E3.2736
G3 X122.755 Y81.735 I2.609 J-1.977 E3.57829
G1 X122.918 Y81.727 E3.58538
G3 X120.601 Y87.226 I.082 J3.272 E4.15219
G1 X120.515 Y87.125 E4.15796
G1 E2.40796 F6000
;WIPE_START
G1 F3000
G1 X120.391 Y86.976 E2.26292
G1 X120.207 Y86.707 E2.01817
G1 X120.05 Y86.42 E1.77341
G1 X119.991 Y86.279 E1.65796
;WIPE_END
G92 E0
G1 X99.329 Y83.401 F18000
G1 E2.5 F6000
;TYPE:Outer wall
G1 F3000
G1 X99.334 Y83.409 E2.50041
G3 X96.789 Y82.183 I-2.334 J1.591 E3.14241
G1 X96.93 Y82.176 E3.14852
G3 X99.164 Y83.184 I.07 J2.824 E3.2586
G1 X99.292 Y83.353 E3.26781
G1 X99.686 Y83.13 F18000
;TYPE:Inner wall
G1 F3000
G1 X99.705 Y83.156 E3.26919
G3 X96.755 Y81.735 I-2.705 J1.844 E4.01314
G1 X96.918 Y81.727 E4.02022
G3 X99.508 Y82.896 I.082 J3.272 E4.14778
G1 X99.649 Y83.083 E4.15796
G1 E2.40796 F6000
;WIPE_START
G1 F3000
G1 X99.705 Y83.156 E2.33912
G1 X99.875 Y83.434 E2.09435
G1 X100.017 Y83.728 E1.84957
G1 X100.104 Y83.968 E1.65796
;WIPE_END
G92 E0
G1 X98.737 Y137.224 F18000
G1 E2.5 F6000
;TYPE:Outer wall
G1 F3000
G1 X98.649 Y137.293 E2.50487
G3 X96.789 Y132.183 I-1.649 J-2.294 E2.95733
G1 X96.93 Y132.176 E2.96344
G3 X98.869 Y137.118 I.07 J2.824 E3.26306
G1 X98.784 Y137.186 E3.26781
G1 X99.016 Y137.574 F18000
;TYPE:Inner wall
G1 F3000
G1 X98.91 Y137.657 E3.27365
G3 X96.755 Y131.735 I-1.911 J-2.658 E3.79796
G1 X96.918 Y131.727 E3.80504
G3 X99.166 Y137.454 I.082 J3.272 E4.15224
G1 X99.063 Y137.537 E4.15796
G1 E2.40796 F6000
;WIPE_START
G1 F3000
G1 X98.91 Y137.657 E2.26205
G1 X98.637 Y137.835 E2.01732
