; HEADER_BLOCK_START
; generated by AnycubicSlicerNext 1.1.1 on 2026-02-01 at 00:34:29
; total layer number: 155
; filament_density: 1.24
; filament_diameter: 1.75
; max_z_height: 25.44
; HEADER_BLOCK_END

; THUMBNAIL_BLOCK_START

;
; THUMBNAIL_BLOCK_END

; external perimeters extrusion width = 0.42mm
; perimeters extrusion width = 0.45mm
; infill extrusion width = 0.45mm
; solid infill extrusion width = 0.42mm
; top infill extrusion width = 0.42mm
; support material extrusion width = 0.40mm
; first layer extrusion width = 0.50mm

; EXECUTABLE_BLOCK_START
M201 X2000 Y2000 Z800 E2000
M203 X300 Y300 Z8 E100
M204 P2000 R2000 T2000
M205 X10.00 Y10.00 Z2.00 E5.00 ; sets the jerk limits, mm/sec
;TYPE:Custom
G90 ; use absolute coordinates
M83 ; extruder relative mode
M104 S220 ; set extruder temp
M140 S60 ; set bed temp
M190 S60 ; wait for bed temp
M109 S220 ; wait for extruder temp
G28                                        ; move X/Y/Z to min endstops
G1 Z0.28                                   ; lift nozzle a bit 
G92 E0 
G1 Y3 F1800                                    ; zero the extruded length 
G1 X60  E25 F500                       ; Extrude 25mm of filament in a 5cm line. 
G92 E0                                     ; zero the extruded length again 
G1 E-2 F500                                ; Retract a little 
G1 X70 F4000                              ; Quickly wipe away from the filament line
M117
G90
G21
M82 ; use absolute distances for extrusion
G92 E0
; filament start gcode
M106 S0
;LAYER_CHANGE
;Z:0.24
;HEIGHT:0.24
; BEFORE_LAYER_CHANGE 0 @ 0.24mm
G1 E-2.5 F6000
G92 E0
; AFTER_LAYER_CHANGE 0 @ 0.24mm
;_SET_FAN_SPEED_CHANGING_LAYER
M204 S500
; printing object Laser Stand - Ipad V2-Body.stl id:2094484426048 copy 0
G1 X132.54 Y129.755 F18000
G1 Z.24
G1 E2.5 F6000
;TYPE:Support
;WIDTH:0.5
G1 F3000
G1 X125.898 Y129.755 E2.78833
G1 X125.898 Y113.6 E3.48961
G1 X124.455 Y113.6 E3.55227
G1 X124.455 Y106.4 E3.86479
G1 X125.898 Y106.4 E3.92745
G1 X125.898 Y90.245 E4.62873
G1 X132.54 Y90.245 E4.91706
G1 X132.54 Y129.688 E6.62921
G1 X124.858 Y106.804 F18000
G1 F3000
G1 X126.302 Y106.804 E6.69187
G1 X126.302 Y90.649 E7.39315
G1 X132.137 Y90.649 E7.64644
G1 X132.137 Y129.351 E9.32646
G1 X126.302 Y129.351 E9.57975
G1 X126.302 Y113.196 E10.28103
G1 X124.858 Y113.196 E10.34369
G1 X124.858 Y106.804 E10.62116
G1 X125.357 Y107.302 F18000
G1 F3000
G1 X126.8 Y107.302 E10.68382
G1 X126.8 Y91.147 E11.3851
G1 X131.638 Y91.147 E11.59513
G1 X131.638 Y128.853 E13.23189
G1 X126.8 Y128.853 E13.44192
G1 X126.8 Y112.698 E14.14319
G1 X125.357 Y112.698 E14.20586
G1 X125.357 Y107.302 E14.44006
G1 X125.855 Y107.801 F18000
G1 F3000
G1 X127.298 Y107.801 E14.50272
G1 X127.298 Y91.645 E15.204
G1 X131.14 Y91.645 E15.37076
G1 X131.14 Y128.355 E16.96426
G1 X127.298 Y128.355 E17.13103
G1 X127.298 Y112.199 E17.83231
G1 X125.855 Y112.199 E17.89497
G1 X125.855 Y107.801 E18.08591
G1 X126.353 Y108.299 F18000
G1 F3000
G1 X127.797 Y108.299 E18.14857
G1 X127.797 Y92.144 E18.84985
G1 X130.642 Y92.144 E18.97335
G1 X130.642 Y127.856 E20.52359
G1 X127.797 Y127.856 E20.64708
G1 X127.797 Y111.701 E21.34836
G1 X126.353 Y111.701 E21.41102
G1 X126.353 Y108.299 E21.55871
G1 X126.852 Y108.797 F18000
G1 F3000
G1 X128.295 Y108.797 E21.62137
G1 X128.295 Y92.642 E22.32264
G1 X130.143 Y92.642 E22.40288
G1 X130.143 Y127.358 E23.90985
G1 X128.295 Y127.358 E23.99009
G1 X128.295 Y111.203 E24.69137
G1 X126.852 Y111.203 E24.75403
G1 X126.852 Y108.797 E24.85845
G1 X127.35 Y109.296 F18000
G1 F3000
G1 X128.793 Y109.296 E24.92111
G1 X128.793 Y93.14 E25.62239
G1 X129.645 Y93.14 E25.65936
G1 X129.645 Y126.86 E27.12307
G1 X128.793 Y126.86 E27.16004
G1 X128.793 Y110.704 E27.86132
G1 X127.35 Y110.704 E27.92398
G1 X127.35 Y109.296 E27.98514
G1 E26.23514 F6000
;WIPE_START
G1 F3000
G1 X127.35 Y110.296 E25.48514
;WIPE_END
G92 E0
G1 X125.45 Y105.952 F18000
G1 E2.5 F6000
;TYPE:Brim
G1 F3000
G1 X124.429 Y105.952 E2.54431
G1 X124.429 Y92.3 E3.13692
G1 X124.373 Y92.116 E3.14526
G1 X124.254 Y91.992 E3.15271
G1 X124.144 Y91.944 E3.15792
G1 X124.055 Y91.926 E3.16189
G1 X88.652 Y91.926 E4.69868
G1 X88.468 Y91.981 E4.70703
G1 X88.344 Y92.1 E4.71448
G1 X88.277 Y92.3 E4.72361
G1 X88.277 Y127.7 E6.26027
G1 X88.333 Y127.884 E6.26862
G1 X88.452 Y128.008 E6.27607
G1 X88.652 Y128.074 E6.2852
G1 X124.055 Y128.074 E7.82199
G1 X124.137 Y128.059 E7.82562
G1 X124.239 Y128.019 E7.83038
G1 X124.362 Y127.9 E7.83783
G1 X124.429 Y127.7 E7.84696
G1 X124.429 Y114.048 E8.43956
G1 X125.45 Y114.048 E8.48387
G1 X125.45 Y129.848 E9.16972
G1 X125.515 Y130.006 E9.17717
G1 X125.647 Y130.138 E9.18523
G1 X125.805 Y130.204 E9.19268
G1 X127.67 Y130.204 E9.27362
G1 X127.388 Y130.586 E9.29426
G1 X126.939 Y131.036 E9.32186
G1 X126.429 Y131.413 E9.34936
G1 X125.711 Y131.776 E9.3843
G1 X125.003 Y132.003 E9.41655
G1 X124.372 Y132.099 E9.44427
G1 X124.05 Y132.111 E9.45825
G1 X88.66 Y132.111 E10.99449
G1 X88.018 Y132.063 E11.02245
G1 X87.396 Y131.921 E11.05013
G1 X86.95 Y131.756 E11.07079
G1 X86.276 Y131.41 E11.10367
G1 X85.765 Y131.033 E11.13121
G1 X85.315 Y130.584 E11.1588
G1 X84.939 Y130.075 E11.1863
G1 X84.575 Y129.356 E11.22124
G1 X84.349 Y128.649 E11.25349
G1 X84.253 Y128.017 E11.28122
G1 X84.241 Y127.696 E11.29519
G1 X84.241 Y92.308 E12.8313
G1 X84.289 Y91.666 E12.85926
G1 X84.431 Y91.044 E12.88695
G1 X84.596 Y90.598 E12.9076
G1 X84.942 Y89.924 E12.94048
G1 X85.318 Y89.414 E12.96802
G1 X85.768 Y88.964 E12.99561
G1 X86.277 Y88.587 E13.02311
G1 X86.995 Y88.224 E13.05806
G1 X87.703 Y87.997 E13.09031
G1 X88.334 Y87.901 E13.11803
G1 X88.656 Y87.889 E13.132
G1 X124.046 Y87.889 E14.66825
G1 X124.688 Y87.937 E14.6962
G1 X125.31 Y88.079 E14.72389
G1 X125.756 Y88.244 E14.74455
G1 X126.43 Y88.59 E14.77742
G1 X126.941 Y88.967 E14.80496
G1 X127.391 Y89.416 E14.83255
G1 X127.672 Y89.797 E14.8531
G1 X125.805 Y89.797 E14.93415
G1 X125.647 Y89.862 E14.9416
G1 X125.515 Y89.994 E14.94967
G1 X125.45 Y90.152 E14.95712
G1 X125.45 Y105.912 E15.64122
G1 E13.89122 F6000
;WIPE_START
G1 F3000
G1 X124.45 Y105.951 E13.14122
;WIPE_END
G92 E0
G1 X124.844 Y91.969 F18000
G1 E2.5 F6000
G1 F3000
G1 X124.75 Y91.905 E2.50494
G1 X124.685 Y91.793 E2.51056
G1 X124.586 Y91.691 E2.51674
G1 X124.424 Y91.578 E2.52531
G1 X124.229 Y91.505 E2.53435
G1 X124.045 Y91.477 E2.54245
G1 X88.661 Y91.477 E4.07838
G1 X88.353 Y91.547 E4.09211
G1 X88.145 Y91.67 E4.10259
G1 X88.044 Y91.766 E4.10864
G1 X87.913 Y91.974 E4.1193
G1 X87.855 Y92.148 E4.12725
G1 X87.829 Y92.311 E4.13443
G1 X87.829 Y127.69 E5.67019
G1 X87.899 Y127.998 E5.68392
G1 X88.021 Y128.207 E5.6944
G1 X88.118 Y128.307 E5.70045
G1 X88.325 Y128.438 E5.71111
G1 X88.499 Y128.496 E5.71906
G1 X88.662 Y128.523 E5.72624
G1 X124.046 Y128.523 E7.26217
G1 X124.214 Y128.5 E7.26955
G1 X124.393 Y128.439 E7.27775
G1 X124.559 Y128.332 E7.28634
G1 X124.662 Y128.234 E7.2925
G1 X124.753 Y128.089 E7.29991
G1 X124.848 Y128.028 E7.30483
G1 X124.956 Y128.061 E7.30974
G1 X125.001 Y128.161 E7.31451
G1 X125.001 Y129.835 E7.38715
G1 X125.04 Y130.032 E7.39587
G1 X125.096 Y130.166 E7.40217
G1 X125.208 Y130.333 E7.4109
G1 X125.32 Y130.446 E7.41781
G1 X125.487 Y130.557 E7.42654
G1 X125.621 Y130.613 E7.43284
G1 X125.818 Y130.652 E7.44156
G1 X126.296 Y130.652 E7.46228
G1 X126.398 Y130.7 E7.46719
G1 X126.428 Y130.809 E7.47211
G1 X126.376 Y130.895 E7.47648
G1 X126.183 Y131.035 E7.48683
G1 X125.53 Y131.363 E7.51855
G1 X124.89 Y131.567 E7.54769
G1 X124.337 Y131.65 E7.57196
G1 X124.044 Y131.662 E7.58469
G1 X88.682 Y131.662 E9.11973
G1 X88.075 Y131.616 E9.14616
G1 X87.533 Y131.492 E9.17029
G1 X87.138 Y131.347 E9.18853
G1 X86.523 Y131.032 E9.21855
G1 X86.051 Y130.685 E9.24396
G1 X85.663 Y130.297 E9.26777
G1 X85.329 Y129.848 E9.29211
G1 X84.996 Y129.195 E9.32389
G1 X84.785 Y128.536 E9.35395
G1 X84.701 Y127.983 E9.37822
G1 X84.689 Y127.685 E9.39117
G1 X84.689 Y92.33 E10.92586
G1 X84.736 Y91.723 E10.95229
G1 X84.859 Y91.181 E10.97642
G1 X85.004 Y90.787 E10.99466
G1 X85.32 Y90.171 E11.02468
G1 X85.667 Y89.7 E11.0501
G1 X86.054 Y89.312 E11.0739
G1 X86.504 Y88.977 E11.09824
G1 X87.156 Y88.645 E11.13002
G1 X87.816 Y88.433 E11.16008
G1 X88.369 Y88.35 E11.18435
G1 X88.662 Y88.338 E11.19708
G1 X124.034 Y88.338 E12.73256
G1 X124.631 Y88.384 E12.75855
G1 X125.19 Y88.513 E12.78344
G1 X125.583 Y88.659 E12.80162
G1 X126.184 Y88.968 E12.83094
G1 X126.373 Y89.105 E12.84109
G1 X126.427 Y89.205 E12.846
G1 X126.386 Y89.31 E12.85092
G1 X126.293 Y89.348 E12.8553
G1 X125.818 Y89.348 E12.87589
G1 X125.621 Y89.387 E12.88462
G1 X125.487 Y89.443 E12.89092
G1 X125.32 Y89.554 E12.89964
G1 X125.208 Y89.667 E12.90656
G1 X125.096 Y89.834 E12.91528
G1 X125.04 Y89.968 E12.92158
G1 X125.001 Y90.165 E12.9303
G1 X125.001 Y91.837 E13.00286
G1 X124.953 Y91.94 E13.00777
G1 X124.883 Y91.959 E13.01096
G1 X124.505 Y91.057 F18000
G1 F3000
G1 X124.397 Y91.087 E13.01584
G1 X124.034 Y91.029 E13.03179
G1 X88.674 Y91.029 E14.56669
G1 X88.262 Y91.109 E14.58494
G1 X88.117 Y91.166 E14.59167
G1 X87.928 Y91.277 E14.60119
G1 X87.737 Y91.441 E14.61215
G1 X87.663 Y91.531 E14.61722
G1 X87.485 Y91.843 E14.6328
G1 X87.412 Y92.083 E14.64368
G1 X87.38 Y92.32 E14.65405
G1 X87.38 Y127.677 E16.18887
G1 X87.46 Y128.09 E16.20712
G1 X87.517 Y128.234 E16.21385
G1 X87.628 Y128.423 E16.22337
G1 X87.792 Y128.615 E16.23433
G1 X87.883 Y128.689 E16.2394
G1 X88.194 Y128.867 E16.25498
G1 X88.434 Y128.94 E16.26586
G1 X88.671 Y128.971 E16.27623
G1 X124.035 Y128.971 E17.81131
G1 X124.397 Y128.914 E17.82723
G1 X124.506 Y128.945 E17.83214
G1 X124.553 Y129.046 E17.83701
G1 X124.553 Y129.821 E17.87065
G1 X124.63 Y130.213 E17.88797
G1 X124.729 Y130.424 E17.89807
G1 X124.827 Y130.571 E17.90578
G1 X125.083 Y130.829 E17.92154
G1 X125.122 Y130.935 E17.92646
G1 X125.029 Y131.052 E17.93295
G1 X124.778 Y131.13 E17.94436
G1 X124.302 Y131.202 E17.96525
G1 X124.032 Y131.214 E17.97695
G1 X88.704 Y131.214 E19.51051
G1 X88.132 Y131.169 E19.5354
G1 X87.669 Y131.063 E19.55604
G1 X87.326 Y130.938 E19.57187
G1 X86.769 Y130.654 E19.59901
G1 X86.337 Y130.337 E19.62229
G1 X85.997 Y129.995 E19.64319
G1 X85.718 Y129.62 E19.66352
G1 X85.417 Y129.034 E19.69211
G1 X85.222 Y128.422 E19.71997
G1 X85.15 Y127.947 E19.74082
G1 X85.138 Y127.673 E19.75274
G1 X85.138 Y92.352 E21.28596
G1 X85.183 Y91.781 E21.31085
G1 X85.288 Y91.317 E21.33148
G1 X85.413 Y90.974 E21.34732
G1 X85.697 Y90.417 E21.37446
G1 X86.015 Y89.986 E21.39774
G1 X86.356 Y89.646 E21.41864
G1 X86.732 Y89.366 E21.43897
G1 X87.318 Y89.066 E21.46756
G1 X87.929 Y88.87 E21.49542
G1 X88.404 Y88.798 E21.51628
G1 X88.668 Y88.786 E21.52774
G1 X124.012 Y88.787 E23.06196
G1 X124.573 Y88.831 E23.0864
G1 X125.03 Y88.936 E23.10674
G1 X125.119 Y89.006 E23.11166
G1 X125.095 Y89.163 E23.11856
G1 X124.827 Y89.429 E23.13495
G1 X124.729 Y89.576 E23.14264
G1 X124.63 Y89.787 E23.15274
G1 X124.553 Y90.179 E23.17006
G1 X124.553 Y90.955 E23.20375
G1 X124.522 Y91.021 E23.20693
G1 X124.053 Y90.551 F18000
G1 F3000
G1 X123.97 Y90.58 E23.21078
G1 X88.686 Y90.58 E24.74239
G1 X88.185 Y90.667 E24.76446
G1 X87.96 Y90.746 E24.77481
G1 X87.629 Y90.943 E24.79151
G1 X87.384 Y91.164 E24.80585
G1 X87.27 Y91.315 E24.81405
G1 X87.052 Y91.724 E24.83417
G1 X86.966 Y92.032 E24.84807
G1 X86.932 Y92.328 E24.86098
G1 X86.932 Y127.666 E26.39496
G1 X87.018 Y128.167 E26.41702
G1 X87.098 Y128.393 E26.42746
G1 X87.237 Y128.642 E26.43983
G1 X87.445 Y128.899 E26.45418
G1 X87.67 Y129.084 E26.46682
G1 X87.961 Y129.25 E26.48135
G1 X88.298 Y129.367 E26.49681
G1 X88.605 Y129.415 E26.51033
G1 X123.97 Y129.42 E28.04545
G1 X124.072 Y129.467 E28.05036
G1 X124.104 Y129.55 E28.05422
G1 X124.115 Y129.92 E28.07027
G1 X124.188 Y130.288 E28.08655
G1 X124.303 Y130.573 E28.09992
G1 X124.298 Y130.686 E28.10483
G1 X124.179 Y130.758 E28.11087
G1 X88.727 Y130.765 E29.64977
G1 X88.191 Y130.722 E29.67313
G1 X87.804 Y130.634 E29.69034
G1 X87.513 Y130.529 E29.70377
G1 X87.015 Y130.276 E29.72801
G1 X86.623 Y129.988 E29.74911
G1 X86.345 Y129.709 E29.76625
G1 X86.107 Y129.391 E29.7835
G1 X85.838 Y128.872 E29.80887
G1 X85.658 Y128.309 E29.83451
G1 X85.598 Y127.911 E29.85197
G1 X85.586 Y127.661 E29.86287
G1 X85.586 Y92.375 E31.39454
G1 X85.63 Y91.839 E31.4179
G1 X85.718 Y91.453 E31.43511
G1 X85.822 Y91.161 E31.44854
G1 X86.075 Y90.664 E31.47278
G1 X86.363 Y90.272 E31.49388
G1 X86.643 Y89.993 E31.51102
G1 X86.961 Y89.755 E31.52826
G1 X87.48 Y89.487 E31.55363
G1 X88.043 Y89.306 E31.57927
G1 X88.441 Y89.246 E31.59675
G1 X88.675 Y89.235 E31.60694
G1 X123.989 Y89.235 E33.13986
G1 X124.186 Y89.25 E33.14842
G1 X124.284 Y89.306 E33.15334
G1 X124.3 Y89.435 E33.15897
G1 X124.188 Y89.712 E33.17195
G1 X124.115 Y90.08 E33.18823
G1 X124.104 Y90.45 E33.20428
G1 X124.071 Y90.515 E33.20746
G1 X123.606 Y90.114 F18000
G1 F3000
G1 X123.54 Y90.132 E33.21047
G1 X88.696 Y90.132 E34.72295
G1 X88.117 Y90.224 E34.74841
G1 X87.821 Y90.32 E34.76195
G1 X87.409 Y90.552 E34.78246
G1 X87.092 Y90.824 E34.80061
G1 X86.869 Y91.114 E34.81646
G1 X86.662 Y91.502 E34.83555
G1 X86.537 Y91.904 E34.85383
G1 X86.483 Y92.336 E34.87273
G1 X86.483 Y127.655 E36.40588
G1 X86.575 Y128.234 E36.43135
G1 X86.673 Y128.534 E36.44504
G1 X86.841 Y128.853 E36.46067
G1 X87.09 Y129.172 E36.47826
G1 X87.457 Y129.478 E36.49899
G1 X87.823 Y129.677 E36.51709
G1 X88.238 Y129.811 E36.53599
G1 X88.614 Y129.863 E36.55249
G1 X123.54 Y129.868 E38.06855
G1 X123.642 Y129.916 E38.07347
G1 X123.672 Y129.978 E38.07647
G1 X123.704 Y130.151 E38.08409
G1 X123.675 Y130.261 E38.089
G1 X123.571 Y130.31 E38.094
G1 X88.75 Y130.317 E39.60552
G1 X88.249 Y130.275 E39.62735
G1 X87.938 Y130.205 E39.64119
G1 X87.699 Y130.119 E39.65221
G1 X87.261 Y129.898 E39.67352
G1 X86.91 Y129.64 E39.69244
G1 X86.692 Y129.421 E39.70586
G1 X86.495 Y129.161 E39.72004
G1 X86.259 Y128.709 E39.74215
G1 X86.094 Y128.196 E39.76555
G1 X86.046 Y127.874 E39.77966
G1 X86.035 Y127.647 E39.78952
G1 X86.035 Y92.399 E41.31961
G1 X86.076 Y91.898 E41.34143
G1 X86.147 Y91.587 E41.35527
G1 X86.232 Y91.348 E41.3663
G1 X86.453 Y90.909 E41.38761
G1 X86.711 Y90.558 E41.40653
G1 X86.93 Y90.34 E41.41994
G1 X87.191 Y90.143 E41.43412
G1 X87.643 Y89.908 E41.45624
G1 X88.161 Y89.742 E41.47985
G1 X88.689 Y89.684 E41.5029
G1 X123.573 Y89.684 E43.01716
G1 X123.675 Y89.731 E43.02207
G1 X123.705 Y89.843 E43.02707
G1 X123.672 Y90.022 E43.03497
G1 X123.63 Y90.081 E43.03815
G1 E41.28815 F6000
;WIPE_START
G1 F3000
G1 X123.54 Y90.132 E41.21082
G1 X122.643 Y90.132 E40.53815
;WIPE_END
G92 E0
G1 X127.798 Y109.744 F18000
G1 E2.5 F6000
G1 F3000
G1 X128.465 Y109.744 E2.52895
G1 X128.465 Y110.256 E2.55117
G1 X127.798 Y110.256 E2.58012
G1 X127.798 Y109.784 E2.6006
G1 E.8506 F6000
;WIPE_START
G1 F3000
G1 X128.465 Y109.744 E.34951
G1 X128.465 Y110.076 E.1006
;WIPE_END
G92 E0
G1 X123.73 Y92.625 F18000
G1 E2.5 F6000
;TYPE:Outer wall
G1 F3000
G1 X123.73 Y127.375 E4.00845
G1 X88.977 Y127.375 E5.51702
G1 X88.977 Y92.625 E7.02547
G1 X123.67 Y92.625 E8.53144
G1 X123.281 Y93.073 F18000
;TYPE:Inner wall
G1 F3000
G1 X123.281 Y126.927 E10.00095
G1 X89.425 Y126.927 E11.47059
G1 X89.425 Y113.23 E12.06515
G1 X89.664 Y113.203 E12.07559
G2 X89.664 Y106.797 I13.189 J-3.203 E15.49665
G1 X89.425 Y106.77 E15.50709
G1 X89.425 Y93.073 E16.10166
G1 X123.221 Y93.073 E17.56869
G1 E15.81869 F6000
;WIPE_START
G1 F3000
G1 X123.223 Y94.073 E15.06869
;WIPE_END
G92 E0
G1 X115.906 Y111.347 F18000
G1 E2.5 F6000
;TYPE:Outer wall
G1 F3000
G1 X115.828 Y111.956 E2.52664
G3 X101.871 Y96.912 I-12.976 J-1.958 E5.08315
G1 X102.524 Y96.879 E5.11156
G3 X115.911 Y111.287 I.327 J13.119 E6.07664
G1 E4.32664 F6000
;WIPE_START
G1 F3000
G1 X115.828 Y111.956 E3.82148
G1 X115.772 Y112.278 E3.57664
;WIPE_END
G92 E0
G1 X122.239 Y93.208 F18000
G1 E2.5 F6000
;TYPE:Bottom surface
;WIDTH:0.500186
G1 F3000
G1 X122.945 Y93.913 E2.54331
G1 X122.945 Y94.548 E2.57087
G1 X121.807 Y93.41 E2.64075
G1 X121.172 Y93.41 E2.6683
G1 X122.945 Y95.182 E2.77716
G1 X122.945 Y95.817 E2.80471
G1 X120.538 Y93.41 E2.95254
G1 X119.903 Y93.41 E2.98009
G1 X122.945 Y96.451 E3.16688
G1 X122.945 Y97.086 E3.19444
G1 X119.269 Y93.41 E3.4202
G1 X118.634 Y93.41 E3.44776
G1 X122.945 Y97.72 E3.71249
G1 X122.945 Y98.355 E3.74004
G1 X118 Y93.41 E4.04375
G1 X117.365 Y93.41 E4.0713
G1 X122.945 Y98.989 E4.41397
