; HEADER_BLOCK_START
; generated by AnycubicSlicerNext 1.1.1 on 2026-01-30 at 20:46:51
; total layer number: 5
; filament_density: 1.24
; filament_diameter: 1.75
; max_z_height: 1.04
; HEADER_BLOCK_END

; THUMBNAIL_BLOCK_START

;
; THUMBNAIL_BLOCK_END

; external perimeters extrusion width = 0.42mm
; perimeters extrusion width = 0.45mm
; infill extrusion width = 0.45mm
; solid infill extrusion width = 0.42mm
; top infill extrusion width = 0.42mm
; support material extrusion width = 0.40mm
; first layer extrusion width = 0.50mm

; EXECUTABLE_BLOCK_START
M201 X2000 Y2000 Z800 E2000
M203 X300 Y300 Z8 E100
M204 P2000 R2000 T2000
M205 X10.00 Y10.00 Z2.00 E5.00 ; sets the jerk limits, mm/sec
;TYPE:Custom
G90 ; use absolute coordinates
M83 ; extruder relative mode
M104 S220 ; set extruder temp
M140 S60 ; set bed temp
M190 S60 ; wait for bed temp
M109 S220 ; wait for extruder temp
G28                                        ; move X/Y/Z to min endstops
G1 Z0.28                                   ; lift nozzle a bit 
G92 E0 
G1 Y3 F1800                                    ; zero the extruded length 
G1 X60  E25 F500                       ; Extrude 25mm of filament in a 5cm line. 
G92 E0                                     ; zero the extruded length again 
G1 E-2 F500                                ; Retract a little 
G1 X70 F4000                              ; Quickly wipe away from the filament line
M117
G90
G21
M82 ; use absolute distances for extrusion
G92 E0
; filament start gcode
M106 S0
;LAYER_CHANGE
;Z:0.24
;HEIGHT:0.24
; BEFORE_LAYER_CHANGE 0 @ 0.24mm
G1 E-2.5 F6000
G92 E0
; AFTER_LAYER_CHANGE 0 @ 0.24mm
;_SET_FAN_SPEED_CHANGING_LAYER
M204 S500
; printing object Roller_V2_Base Plate.stl id:140721665055872 copy 0
G1 X52.636 Y68.881 F18000
G1 Z.24
G1 E2.5 F6000
;TYPE:Brim
;WIDTH:0.5
G1 F3000
G1 X53.184 Y68.559 E2.52758
G1 X53.807 Y68.309 E2.55672
G1 X54.424 Y68.154 E2.58433
G1 X55.167 Y68.089 E2.6167
G1 X164.835 Y68.089 E7.37724
G1 X165.477 Y68.137 E7.4052
G1 X166.099 Y68.279 E7.43288
G1 X166.545 Y68.444 E7.45354
G1 X167.219 Y68.79 E7.48641
G1 X167.729 Y69.167 E7.51395
G1 X168.179 Y69.616 E7.54154
G1 X168.557 Y70.127 E7.56913
G1 X168.87 Y70.72 E7.59826
G1 X169.089 Y71.318 E7.62587
G1 X169.231 Y72.049 E7.65822
G1 X169.332 Y73.052 E7.70195
G1 X169.392 Y74.07 E7.74623
G1 X169.411 Y74.999 E7.78658
G1 X169.411 Y144.998 E10.82511
G1 X169.392 Y145.923 E10.86529
G1 X169.333 Y146.941 E10.90954
G1 X169.231 Y147.951 E10.95363
G1 X169.116 Y148.585 E10.98157
G1 X168.911 Y149.187 E11.0092
G1 X168.641 Y149.718 E11.03503
G1 X168.286 Y150.248 E11.06276
G1 X167.857 Y150.718 E11.09036
G1 X167.364 Y151.119 E11.11795
G1 X166.816 Y151.441 E11.14553
G1 X166.193 Y151.691 E11.17466
G1 X165.576 Y151.846 E11.20228
G1 X164.833 Y151.911 E11.23465
G1 X55.165 Y151.911 E15.99519
G1 X54.523 Y151.863 E16.02315
G1 X53.902 Y151.721 E16.05078
G1 X53.347 Y151.509 E16.07658
G1 X52.782 Y151.21 E16.10431
G1 X52.271 Y150.833 E16.13191
G1 X51.821 Y150.384 E16.1595
G1 X51.443 Y149.873 E16.18708
G1 X51.13 Y149.28 E16.21621
G1 X50.911 Y148.682 E16.24383
G1 X50.769 Y147.951 E16.27618
G1 X50.668 Y146.948 E16.31992
G1 X50.616 Y146.116 E16.35609
G1 X50.59 Y145.095 E16.40046
G1 X50.59 Y74.909 E19.44711
G1 X50.615 Y73.891 E19.49131
G1 X50.667 Y73.06 E19.52748
G1 X50.769 Y72.049 E19.57158
G1 X50.884 Y71.415 E19.59952
G1 X51.089 Y70.813 E19.62715
G1 X51.359 Y70.282 E19.65298
G1 X51.714 Y69.752 E19.68072
G1 X52.143 Y69.282 E19.70831
G1 X52.605 Y68.907 E19.73417
G1 X52.885 Y69.257 F18000
G1 F3000
G1 X53.392 Y68.959 E19.75969
G1 X53.954 Y68.735 E19.78598
G1 X54.509 Y68.596 E19.8108
G1 X55.192 Y68.538 E19.84054
G1 X164.823 Y68.538 E24.59947
G1 X165.42 Y68.584 E24.62546
G1 X165.962 Y68.708 E24.64959
G1 X166.371 Y68.859 E24.66853
G1 X166.99 Y69.179 E24.69879
G1 X167.443 Y69.515 E24.72327
G1 X167.845 Y69.918 E24.74794
G1 X168.181 Y70.375 E24.77259
G1 X168.463 Y70.911 E24.79888
G1 X168.658 Y71.449 E24.8237
G1 X168.787 Y72.121 E24.8534
G1 X168.885 Y73.09 E24.8957
G1 X168.944 Y74.09 E24.93918
G1 X168.962 Y75.005 E24.9789
G1 X168.962 Y144.992 E28.01694
G1 X168.944 Y145.903 E28.05648
G1 X168.885 Y146.908 E28.10019
G1 X168.785 Y147.894 E28.14321
G1 X168.683 Y148.462 E28.16826
G1 X168.5 Y149.003 E28.19307
G1 X168.249 Y149.497 E28.2171
G1 X167.925 Y149.978 E28.24229
G1 X167.541 Y150.397 E28.26697
G1 X167.115 Y150.743 E28.29078
G1 X166.608 Y151.041 E28.31629
G1 X166.046 Y151.265 E28.34259
G1 X165.491 Y151.404 E28.36741
G1 X164.808 Y151.462 E28.39715
G1 X55.187 Y151.462 E33.15564
G1 X54.6 Y151.419 E33.1812
G1 X54.042 Y151.293 E33.20601
G1 X53.526 Y151.096 E33.23002
G1 X53.03 Y150.834 E33.25434
G1 X52.557 Y150.485 E33.27988
G1 X52.168 Y150.097 E33.30369
G1 X51.83 Y149.642 E33.32832
G1 X51.545 Y149.105 E33.35472
G1 X51.348 Y148.572 E33.37938
G1 X51.215 Y147.891 E33.40949
G1 X51.115 Y146.914 E33.45214
G1 X51.064 Y146.099 E33.48757
G1 X51.039 Y145.087 E33.53151
G1 X51.039 Y74.913 E36.57767
G1 X51.063 Y73.913 E36.62108
G1 X51.115 Y73.094 E36.65674
G1 X51.213 Y72.117 E36.69936
G1 X51.323 Y71.519 E36.72574
G1 X51.508 Y70.979 E36.75051
G1 X51.751 Y70.503 E36.77372
G1 X52.063 Y70.037 E36.79804
G1 X52.445 Y69.616 E36.82271
G1 X52.854 Y69.282 E36.84565
G1 X53.134 Y69.633 F18000
G1 F3000
G1 X53.599 Y69.359 E36.86907
G1 X54.101 Y69.16 E36.8925
G1 X54.594 Y69.039 E36.91452
G1 X55.217 Y68.986 E36.94167
G1 X164.8 Y68.987 E41.69854
G1 X165.343 Y69.028 E41.72214
G1 X165.825 Y69.137 E41.74361
G1 X166.197 Y69.274 E41.76082
G1 X166.743 Y69.556 E41.78749
G1 X167.157 Y69.863 E41.80983
G1 X167.496 Y70.203 E41.83072
G1 X167.794 Y70.605 E41.85243
G1 X168.047 Y71.085 E41.87598
G1 X168.226 Y71.579 E41.89879
G1 X168.344 Y72.192 E41.92586
G1 X168.438 Y73.129 E41.96675
G1 X168.496 Y74.11 E42.00944
G1 X168.514 Y75.011 E42.04853
G1 X168.514 Y144.986 E45.08606
G1 X168.496 Y145.883 E45.12498
G1 X168.438 Y146.869 E45.16788
G1 X168.341 Y147.826 E45.20963
G1 X168.249 Y148.34 E45.23229
G1 X168.088 Y148.82 E45.25427
G1 X167.857 Y149.276 E45.27647
G1 X167.565 Y149.707 E45.29907
G1 X167.239 Y150.063 E45.31999
G1 X166.866 Y150.367 E45.3409
G1 X166.401 Y150.641 E45.36434
G1 X165.899 Y150.84 E45.38777
G1 X165.406 Y150.961 E45.40979
G1 X164.783 Y151.014 E45.43693
G1 X55.209 Y151.014 E50.19341
G1 X54.676 Y150.975 E50.21659
G1 X54.182 Y150.865 E50.23857
G1 X53.719 Y150.689 E50.26006
G1 X53.278 Y150.458 E50.28166
G1 X52.843 Y150.137 E50.30516
G1 X52.503 Y149.795 E50.32606
G1 X52.216 Y149.41 E50.34691
G1 X51.959 Y148.929 E50.37058
G1 X51.785 Y148.461 E50.39228
G1 X51.66 Y147.832 E50.42012
G1 X51.563 Y146.88 E50.46166
G1 X51.512 Y146.082 E50.49634
G1 X51.487 Y145.08 E50.53985
G1 X51.487 Y74.92 E53.58539
G1 X51.512 Y73.935 E53.62815
G1 X51.562 Y73.128 E53.66329
G1 X51.657 Y72.185 E53.70442
G1 X51.761 Y71.623 E53.72923
G1 X51.926 Y71.146 E53.75112
G1 X52.143 Y70.724 E53.77173
G1 X52.411 Y70.323 E53.79269
G1 X52.747 Y69.95 E53.81447
G1 X53.103 Y69.658 E53.83445
G1 X53.384 Y70.008 F18000
G1 F3000
G1 X53.787 Y69.768 E53.85483
G1 X54.246 Y69.586 E53.87626
G1 X54.677 Y69.482 E53.8955
G1 X55.241 Y69.435 E53.92008
G1 X164.778 Y69.435 E58.67491
G1 X165.266 Y69.472 E58.69616
G1 X165.689 Y69.566 E58.71495
G1 X166.023 Y69.689 E58.73041
G1 X166.495 Y69.933 E58.75348
G1 X166.87 Y70.21 E58.7737
G1 X167.161 Y70.505 E58.79169
G1 X167.407 Y70.837 E58.80962
G1 X167.632 Y71.259 E58.83039
G1 X167.795 Y71.709 E58.85116
G1 X167.9 Y72.262 E58.87561
G1 X167.991 Y73.167 E58.91509
G1 X168.048 Y74.131 E58.95699
G1 X168.065 Y75.017 E58.99545
G1 X168.065 Y144.983 E62.03259
G1 X168.048 Y145.868 E62.071
G1 X167.991 Y146.831 E62.11288
G1 X167.897 Y147.759 E62.15335
G1 X167.81 Y148.238 E62.17449
G1 X167.669 Y148.655 E62.19364
G1 X167.465 Y149.055 E62.21313
G1 X167.218 Y149.42 E62.23226
G1 X166.937 Y149.728 E62.25036
G1 X166.617 Y149.992 E62.26834
G1 X166.213 Y150.232 E62.28876
G1 X165.754 Y150.414 E62.31019
G1 X165.323 Y150.518 E62.32942
G1 X164.759 Y150.565 E62.35401
G1 X55.23 Y150.565 E67.10848
G1 X54.751 Y150.53 E67.12932
G1 X54.32 Y150.436 E67.14848
G1 X53.911 Y150.283 E67.16745
G1 X53.526 Y150.081 E67.1863
G1 X53.129 Y149.789 E67.20771
G1 X52.85 Y149.509 E67.22486
G1 X52.602 Y149.177 E67.24284
G1 X52.373 Y148.753 E67.26378
G1 X52.221 Y148.348 E67.28253
G1 X52.105 Y147.771 E67.30808
G1 X52.01 Y146.845 E67.34848
G1 X51.961 Y146.065 E67.38242
G1 X51.936 Y145.073 E67.4255
G1 X51.936 Y74.928 E70.47041
G1 X51.96 Y73.958 E70.51252
G1 X52.009 Y73.162 E70.54715
G1 X52.101 Y72.254 E70.58676
G1 X52.199 Y71.728 E70.60996
G1 X52.344 Y71.314 E70.62899
G1 X52.534 Y70.945 E70.64702
G1 X52.761 Y70.607 E70.66468
G1 X53.051 Y70.283 E70.68358
G1 X53.353 Y70.033 E70.70057
G1 X53.635 Y70.383 F18000
G1 F3000
G1 X53.996 Y70.168 E70.7188
G1 X54.392 Y70.013 E70.73726
G1 X54.759 Y69.925 E70.75367
G1 X55.266 Y69.883 E70.77574
G1 X164.756 Y69.884 E75.52854
G1 X165.191 Y69.916 E75.54747
G1 X165.553 Y69.995 E75.56357
G1 X165.849 Y70.104 E75.57725
G1 X166.248 Y70.31 E75.59674
G1 X166.583 Y70.557 E75.6148
G1 X166.825 Y70.805 E75.62986
G1 X167.021 Y71.069 E75.64411
G1 X167.216 Y71.433 E75.66205
G1 X167.357 Y71.818 E75.67984
G1 X167.455 Y72.321 E75.70208
G1 X167.544 Y73.206 E75.74068
G1 X167.599 Y74.151 E75.78179
G1 X167.617 Y75.022 E75.81962
G1 X167.617 Y144.98 E78.85637
G1 X167.599 Y145.853 E78.89427
G1 X167.544 Y146.792 E78.93513
G1 X167.454 Y147.69 E78.97431
G1 X167.372 Y148.134 E78.9939
G1 X167.25 Y148.49 E79.01021
G1 X167.082 Y148.819 E79.02628
G1 X166.87 Y149.134 E79.04274
G1 X166.634 Y149.395 E79.05803
G1 X166.367 Y149.617 E79.0731
G1 X166.004 Y149.832 E79.09138
G1 X165.608 Y149.987 E79.10985
G1 X165.241 Y150.075 E79.12625
G1 X164.734 Y150.117 E79.14832
G1 X55.251 Y150.117 E83.90081
G1 X54.806 Y150.083 E83.92018
G1 X54.438 Y150.001 E83.93654
G1 X54.087 Y149.868 E83.95285
G1 X53.756 Y149.694 E83.96909
G1 X53.431 Y149.454 E83.98663
G1 X53.197 Y149.221 E84.00096
G1 X52.987 Y148.943 E84.01608
G1 X52.787 Y148.575 E84.03429
G1 X52.658 Y148.234 E84.05009
G1 X52.55 Y147.71 E84.07331
G1 X52.457 Y146.811 E84.11256
G1 X52.409 Y146.048 E84.14575
G1 X52.384 Y145.066 E84.1884
G1 X52.384 Y74.935 E87.23268
G1 X52.408 Y73.98 E87.27415
G1 X52.456 Y73.201 E87.30803
G1 X52.545 Y72.323 E87.34631
G1 X52.637 Y71.834 E87.36791
G1 X52.761 Y71.484 E87.38405
G1 X52.917 Y71.18 E87.39886
G1 X53.11 Y70.891 E87.41396
G1 X53.356 Y70.615 E87.43001
G1 X53.604 Y70.408 E87.44401
G1 X53.909 Y70.765 F18000
G1 F3000
G1 X53.989 Y70.697 E87.44858
G1 X54.231 Y70.561 E87.46066
G1 X54.488 Y70.456 E87.47269
G1 X55.204 Y70.332 E87.50423
G1 X164.809 Y70.332 E92.26201
G1 X165.154 Y70.368 E92.2771
G1 X165.53 Y70.466 E92.29396
G1 X166.097 Y70.761 E92.32167
G1 X166.422 Y71.046 E92.34046
G1 X166.663 Y71.362 E92.35771
G1 X166.848 Y71.728 E92.3755
G1 X166.969 Y72.134 E92.3939
G1 X167.092 Y73.174 E92.43936
G1 X167.148 Y74.065 E92.47813
G1 X167.168 Y75.006 E92.51898
G1 X167.168 Y144.994 E95.55706
G1 X167.146 Y145.973 E95.59958
G1 X167.092 Y146.828 E95.63677
G1 X167.004 Y147.681 E95.67399
G1 X166.852 Y148.251 E95.69957
G1 X166.627 Y148.686 E95.72083
G1 X166.278 Y149.095 E95.74421
G1 X165.925 Y149.354 E95.76318
G1 X165.416 Y149.569 E95.78718
G1 X164.8 Y149.668 E95.81427
G1 X55.192 Y149.668 E100.5722
G1 X54.846 Y149.632 E100.58729
G1 X54.47 Y149.534 E100.60415
G1 X53.903 Y149.239 E100.63186
G1 X53.578 Y148.954 E100.65064
G1 X53.337 Y148.638 E100.66789
G1 X53.152 Y148.272 E100.68569
G1 X53.031 Y147.866 E100.70409
G1 X52.908 Y146.826 E100.74955
G1 X52.852 Y145.935 E100.78832
G1 X52.832 Y145.02 E100.82805
G1 X52.832 Y74.968 E103.86889
G1 X52.853 Y74.042 E103.90911
G1 X52.91 Y73.149 E103.94796
G1 X52.996 Y72.319 E103.98418
G1 X53.149 Y71.745 E104.00996
G1 X53.302 Y71.423 E104.02544
G1 X53.585 Y71.042 E104.04604
G1 X53.878 Y70.791 E104.06279
G1 X54.171 Y71.117 F18000
G1 F3000
G1 X54.196 Y71.095 E104.06425
G1 X54.458 Y70.948 E104.07726
G1 X54.661 Y70.869 E104.08674
G1 X55.192 Y70.78 E104.11011
G1 X164.816 Y70.78 E108.8687
G1 X165.111 Y70.815 E108.88161
G1 X165.422 Y70.902 E108.89561
G1 X165.805 Y71.101 E108.91435
G1 X166.057 Y71.306 E108.92848
G1 X166.313 Y71.643 E108.94685
G1 X166.446 Y71.926 E108.96041
G1 X166.539 Y72.262 E108.97556
G1 X166.644 Y73.198 E109.01645
G1 X166.699 Y74.072 E109.05447
G1 X166.72 Y75.004 E109.09494
G1 X166.72 Y144.996 E112.13315
G1 X166.699 Y145.942 E112.17426
G1 X166.644 Y146.803 E112.21167
G1 X166.557 Y147.646 E112.24847
G1 X166.417 Y148.141 E112.27082
G1 X166.23 Y148.477 E112.28751
G1 X165.936 Y148.805 E112.30665
G1 X165.665 Y148.989 E112.32084
G1 X165.246 Y149.154 E112.34042
G1 X164.809 Y149.22 E112.35958
G1 X55.184 Y149.22 E117.11822
G1 X54.889 Y149.185 E117.13113
G1 X54.578 Y149.098 E117.14513
G1 X54.195 Y148.899 E117.16388
G1 X53.943 Y148.694 E117.17801
G1 X53.687 Y148.357 E117.19638
G1 X53.554 Y148.074 E117.20994
G1 X53.461 Y147.738 E117.22508
G1 X53.356 Y146.802 E117.26598
G1 X53.301 Y145.928 E117.30399
G1 X53.28 Y145.008 E117.3439
G1 X53.281 Y74.98 E120.38375
G1 X53.301 Y74.073 E120.42311
G1 X53.358 Y73.174 E120.4622
G1 X53.443 Y72.355 E120.49798
G1 X53.583 Y71.856 E120.52045
G1 X53.705 Y71.62 E120.53201
G1 X53.875 Y71.383 E120.54466
G1 X54.141 Y71.144 E120.56018
G1 X54.409 Y71.49 F18000
G1 F3000
G1 X54.685 Y71.335 E120.57395
G1 X54.816 Y71.29 E120.57993
G1 X55.181 Y71.229 E120.59602
G1 X164.823 Y71.229 E125.35543
G1 X165.06 Y71.26 E125.36581
G1 X165.302 Y71.334 E125.37676
G1 X165.595 Y71.497 E125.39134
G1 X165.77 Y71.65 E125.40143
G1 X165.953 Y71.909 E125.4152
G1 X166.011 Y72.034 E125.42118
G1 X166.11 Y72.392 E125.43729
G1 X166.197 Y73.224 E125.47358
G1 X166.251 Y74.079 E125.51081
G1 X166.271 Y75.003 E125.5509
G1 X166.271 Y144.997 E128.58925
G1 X166.251 Y145.911 E128.62894
G1 X166.197 Y146.777 E128.66659
G1 X166.11 Y147.611 E128.70298
G1 X166.024 Y147.927 E128.7172
G1 X165.893 Y148.182 E128.72966
G1 X165.679 Y148.438 E128.74413
G1 X165.494 Y148.574 E128.75411
G1 X165.184 Y148.71 E128.76878
G1 X164.819 Y148.771 E128.78487
G1 X55.177 Y148.771 E133.54428
G1 X54.94 Y148.74 E133.55466
G1 X54.698 Y148.666 E133.56561
G1 X54.405 Y148.503 E133.58018
G1 X54.23 Y148.35 E133.59028
G1 X54.047 Y148.091 E133.60404
G1 X53.989 Y147.966 E133.61003
G1 X53.89 Y147.608 E133.62613
G1 X53.803 Y146.776 E133.66243
G1 X53.749 Y145.921 E133.69965
G1 X53.729 Y144.997 E133.73975
G1 X53.729 Y74.991 E136.77863
G1 X53.748 Y74.104 E136.81713
G1 X53.803 Y73.224 E136.85542
G1 X53.89 Y72.39 E136.89182
G1 X53.976 Y72.073 E136.90605
G1 X54.109 Y71.815 E136.91863
G1 X54.236 Y71.65 E136.9277
G1 X54.379 Y71.517 E136.93618
G1 X54.662 Y71.861 F18000
G1 F3000
G1 X54.699 Y71.83 E136.93827
G1 X54.894 Y71.731 E136.94776
G1 X55.17 Y71.677 E136.95995
G1 X164.832 Y71.677 E141.72023
G1 X164.995 Y71.704 E141.72741
G1 X165.17 Y71.762 E141.7354
G1 X165.368 Y71.884 E141.74549
G1 X165.461 Y71.975 E141.75116
G1 X165.58 Y72.159 E141.76066
G1 X165.663 Y72.427 E141.77285
G1 X165.751 Y73.273 E141.80975
G1 X165.804 Y74.11 E141.84618
G1 X165.823 Y75.001 E141.88487
G1 X165.823 Y144.999 E144.92334
G1 X165.804 Y145.88 E144.96162
G1 X165.749 Y146.751 E144.99951
G1 X165.663 Y147.575 E145.03545
G1 X165.619 Y147.734 E145.04263
G1 X165.543 Y147.902 E145.05062
G1 X165.401 Y148.087 E145.06072
G1 X165.301 Y148.17 E145.06639
G1 X165.106 Y148.269 E145.07588
G1 X164.83 Y148.323 E145.08807
G1 X55.168 Y148.323 E149.84835
G1 X55.005 Y148.296 E149.85553
G1 X54.83 Y148.238 E149.86352
G1 X54.632 Y148.116 E149.87362
G1 X54.539 Y148.025 E149.87929
G1 X54.42 Y147.841 E149.88878
G1 X54.337 Y147.573 E149.90097
G1 X54.249 Y146.727 E149.93787
G1 X54.197 Y145.89 E149.9743
G1 X54.177 Y144.999 E150.01299
G1 X54.177 Y75.001 E153.05147
G1 X54.195 Y74.135 E153.0891
G1 X54.249 Y73.273 E153.12659
G1 X54.337 Y72.425 E153.16358
G1 X54.381 Y72.266 E153.17076
G1 X54.457 Y72.098 E153.17875
G1 X54.599 Y71.913 E153.18884
G1 X54.631 Y71.886 E153.19069
G1 X54.916 Y72.233 F18000
G1 F3000
G1 X54.996 Y72.167 E153.19515
G1 X55.157 Y72.126 E153.20237
G1 X164.843 Y72.126 E157.96369
G1 X165.043 Y72.192 E157.97282
G1 X165.157 Y72.305 E157.9798
G1 X165.215 Y72.461 E157.98702
G1 X165.303 Y73.298 E158.02356
G1 X165.356 Y74.141 E158.06023
G1 X165.374 Y75 E158.09752
G1 X165.374 Y145 E161.13611
