; HEADER_BLOCK_START
; generated by AnycubicSlicerNext 1.1.1 on 2026-01-30 at 17:12:17
; total layer number: 167
; filament_density: 1.24
; filament_diameter: 1.75
; max_z_height: 29.44
; HEADER_BLOCK_END

; THUMBNAIL_BLOCK_START

;
; THUMBNAIL_BLOCK_END

; external perimeters extrusion width = 0.42mm
; perimeters extrusion width = 0.45mm
; infill extrusion width = 0.45mm
; solid infill extrusion width = 0.42mm
; top infill extrusion width = 0.42mm
; support material extrusion width = 0.40mm
; first layer extrusion width = 0.50mm

; EXECUTABLE_BLOCK_START
M201 X2000 Y2000 Z800 E2000
M203 X300 Y300 Z8 E100
M204 P2000 R2000 T2000
M205 X10.00 Y10.00 Z2.00 E5.00 ; sets the jerk limits, mm/sec
;TYPE:Custom
G90 ; use absolute coordinates
M83 ; extruder relative mode
M104 S220 ; set extruder temp
M140 S60 ; set bed temp
M190 S60 ; wait for bed temp
M109 S220 ; wait for extruder temp
G28                                        ; move X/Y/Z to min endstops
G1 Z0.28                                   ; lift nozzle a bit 
G92 E0 
G1 Y3 F1800                                    ; zero the extruded length 
G1 X60  E25 F500                       ; Extrude 25mm of filament in a 5cm line. 
G92 E0                                     ; zero the extruded length again 
G1 E-2 F500                                ; Retract a little 
G1 X70 F4000                              ; Quickly wipe away from the filament line
M117
G90
G21
M82 ; use absolute distances for extrusion
G92 E0
; filament start gcode
M106 S0
;LAYER_CHANGE
;Z:0.24
;HEIGHT:0.24
; BEFORE_LAYER_CHANGE 0 @ 0.24mm
G1 E-2.5 F6000
G92 E0
; AFTER_LAYER_CHANGE 0 @ 0.24mm
;_SET_FAN_SPEED_CHANGING_LAYER
M204 S500
; printing object Roller_V2.stl id:4688326544685072620 copy 0
G1 X110.684 Y100.876 F18000
G1 Z.24
G1 E2.5 F6000
;TYPE:Support
;WIDTH:0.5
G1 F3000
G3 X110.228 Y100.853 I-.684 J9.123 E4.97539
G1 X110.617 Y100.872 E4.99227
G1 X108.214 Y108.214 F18000
G1 F3000
G1 X108.214 Y111.786 E5.1473
G1 X111.786 Y111.786 E5.30233
G1 X111.786 Y108.214 E5.45736
G1 X108.282 Y108.214 E5.60947
G1 X101.265 Y110.427 F18000
G1 F3000
G3 X101.297 Y110.871 I8.735 J-.423 E7.9752
G1 X101.265 Y110.427 E7.99454
G1 X101.762 Y110.402 F18000
G1 F3000
G3 X101.793 Y110.822 I8.237 J-.398 E10.22541
G1 X101.762 Y110.402 E10.24367
G1 X102.26 Y110.378 F18000
G1 F3000
G3 X102.289 Y110.772 I7.739 J-.374 E12.33968
G1 X102.26 Y110.378 E12.35686
G1 X102.758 Y110.353 F18000
G1 F3000
G3 X102.785 Y110.723 I7.241 J-.35 E14.31802
G1 X102.758 Y110.353 E14.33412
G1 X103.256 Y110.328 F18000
G1 F3000
G3 X103.282 Y110.674 I6.743 J-.325 E16.16042
G1 X103.256 Y110.328 E16.17544
G1 X106.329 Y114.681 F18000
G1 F3000
G1 X113.671 Y114.681 E16.49413
G1 X113.768 Y114.997 E16.5085
G3 X106.232 Y114.997 I-3.768 J-5.033 E16.85932
G1 X106.329 Y114.681 E16.87369
G1 X108.622 Y115.179 F18000
G1 F3000
G1 X111.378 Y115.179 E16.9933
G1 X111.418 Y115.583 E17.01092
G3 X108.582 Y115.583 I-1.418 J-5.82 E17.13521
G1 X108.622 Y115.179 E17.15283
G1 X105.319 Y113.666 F18000
G1 F3000
G1 X105.008 Y113.766 E17.16701
G3 X105.008 Y106.234 I5.029 J-3.766 E17.51766
G1 X105.319 Y106.334 E17.53184
G1 X105.319 Y113.666 E17.85013
G1 X104.821 Y111.374 F18000
G1 F3000
G1 X104.422 Y111.419 E17.86753
G3 X104.422 Y108.581 I5.814 J-1.419 E17.99188
G1 X104.821 Y108.626 E18.00928
G1 X104.821 Y111.374 E18.12856
G1 X105.817 Y114.183 F18000
G1 F3000
G1 X105.817 Y105.817 E18.49168
G1 X114.183 Y105.817 E18.85481
G1 X114.183 Y114.183 E19.21794
G1 X105.817 Y114.183 E19.58107
G1 X106.316 Y113.684 F18000
G1 F3000
G1 X106.316 Y106.316 E19.90093
G1 X113.684 Y106.316 E20.22079
G1 X113.684 Y113.684 E20.54066
G1 X106.316 Y113.684 E20.86052
G1 X106.814 Y113.186 F18000
G1 F3000
G1 X106.814 Y106.814 E21.13712
G1 X113.186 Y106.814 E21.41372
G1 X113.186 Y113.186 E21.69032
G1 X106.814 Y113.186 E21.96692
G1 X107.312 Y112.688 F18000
G1 F3000
G1 X107.312 Y107.312 E22.20026
G1 X112.688 Y107.312 E22.4336
G1 X112.688 Y112.688 E22.66693
G1 X107.312 Y112.688 E22.90027
G1 X107.811 Y112.189 F18000
G1 F3000
G1 X107.811 Y107.811 E23.09035
G1 X112.189 Y107.811 E23.28042
G1 X112.189 Y112.189 E23.47049
G1 X107.811 Y112.189 E23.66057
G1 X106.329 Y105.319 F18000
G1 F3000
G1 X106.232 Y105.003 E23.67494
G3 X113.768 Y105.003 I3.768 J5.033 E24.02576
G1 X113.671 Y105.319 E24.04013
G1 X106.329 Y105.319 E24.35882
G1 X108.622 Y104.821 F18000
G1 F3000
G1 X108.582 Y104.417 E24.37644
G3 X111.418 Y104.417 I1.418 J5.82 E24.50074
G1 X111.378 Y104.821 E24.51835
G1 X108.622 Y104.821 E24.63796
G1 X114.681 Y106.334 F18000
G1 F3000
G1 X114.992 Y106.234 E24.65215
G3 X114.992 Y113.766 I-5.029 J3.766 E25.00279
G1 X114.681 Y113.666 E25.01697
G1 X114.681 Y106.334 E25.33526
G1 X115.179 Y108.626 F18000
G1 F3000
G1 X115.578 Y108.581 E25.35266
G3 X115.578 Y111.419 I-5.818 J1.419 E25.47701
G1 X115.179 Y111.374 E25.49441
G1 X115.179 Y108.626 E25.61368
G1 E23.86368 F6000
;WIPE_START
G1 F3000
G1 X115.179 Y109.626 E23.11368
;WIPE_END
G92 E0
G1 X130.79 Y104.317 F18000
G1 E2.5 F6000
;TYPE:Brim
G1 F3000
G1 X130.919 Y104.783 E2.52099
G1 X131.153 Y105.832 E2.56766
G1 X131.334 Y106.892 E2.61432
G1 X131.463 Y107.959 E2.66098
G1 X131.538 Y109.031 E2.70765
G1 X131.559 Y110.106 E2.75431
G1 X131.527 Y111.181 E2.80097
G1 X131.442 Y112.252 E2.84764
G1 X131.303 Y113.318 E2.8943
G1 X131.111 Y114.376 E2.94096
G1 X130.866 Y115.423 E2.98763
G1 X130.57 Y116.456 E3.03429
G1 X130.223 Y117.473 E3.08095
G1 X129.825 Y118.472 E3.12762
G1 X129.39 Y119.424 E3.17304
G1 X128.883 Y120.404 E3.22096
G1 X128.457 Y121.143 E3.25798
G1 X127.878 Y122.049 E3.30467
G1 X127.255 Y122.926 E3.35133
G1 X126.589 Y123.77 E3.39799
G1 X125.882 Y124.579 E3.44466
G1 X125.136 Y125.353 E3.49132
G1 X124.352 Y126.088 E3.53798
G1 X123.532 Y126.784 E3.58465
G1 X122.679 Y127.437 E3.63131
G1 X121.794 Y128.048 E3.67797
G1 X120.879 Y128.613 E3.72464
G1 X119.938 Y129.132 E3.7713
G1 X118.972 Y129.604 E3.81796
G1 X117.984 Y130.027 E3.86463
G1 X116.976 Y130.4 E3.91129
G1 X115.95 Y130.722 E3.95795
G1 X114.91 Y130.993 E4.00462
G1 X113.857 Y131.212 E4.05128
G1 X112.795 Y131.378 E4.09795
G1 X111.726 Y131.49 E4.14461
G1 X110.653 Y131.55 E4.19127
G1 X109.578 Y131.555 E4.23794
G1 X108.504 Y131.508 E4.2846
G1 X107.434 Y131.406 E4.33126
G1 X106.37 Y131.252 E4.37793
G1 X105.315 Y131.044 E4.42459
G1 X104.272 Y130.785 E4.47125
G1 X103.243 Y130.473 E4.51792
G1 X102.231 Y130.111 E4.56458
G1 X101.238 Y129.699 E4.61124
G1 X100.267 Y129.238 E4.65791
G1 X99.32 Y128.728 E4.70457
G1 X98.4 Y128.173 E4.75124
G1 X97.509 Y127.572 E4.7979
G1 X96.648 Y126.928 E4.84456
G1 X95.821 Y126.241 E4.89123
G1 X95.029 Y125.514 E4.93789
G1 X94.274 Y124.749 E4.98455
G1 X93.559 Y123.946 E5.03122
G1 X92.884 Y123.109 E5.07788
G1 X92.252 Y122.24 E5.12454
G1 X91.664 Y121.34 E5.17121
G1 X91.121 Y120.412 E5.21787
G1 X90.626 Y119.459 E5.26451
G1 X90.092 Y118.276 E5.32083
G1 X89.705 Y117.274 E5.36746
G1 X89.367 Y116.253 E5.41413
G1 X89.081 Y115.217 E5.46079
G1 X88.847 Y114.168 E5.50746
G1 X88.666 Y113.108 E5.55412
G1 X88.537 Y112.041 E5.60078
G1 X88.462 Y110.969 E5.64745
G1 X88.441 Y109.894 E5.69411
G1 X88.473 Y108.819 E5.74077
G1 X88.558 Y107.748 E5.78744
G1 X88.697 Y106.682 E5.8341
G1 X88.889 Y105.624 E5.88076
G1 X89.134 Y104.577 E5.92743
G1 X89.43 Y103.544 E5.97409
G1 X89.777 Y102.527 E6.02075
G1 X90.175 Y101.528 E6.06742
G1 X90.622 Y100.55 E6.11408
G1 X91.117 Y99.596 E6.16075
G1 X91.659 Y98.668 E6.20741
G1 X92.247 Y97.768 E6.25407
G1 X92.878 Y96.898 E6.30074
G1 X93.553 Y96.061 E6.3474
G1 X94.268 Y95.258 E6.39406
G1 X95.022 Y94.492 E6.44073
G1 X95.814 Y93.765 E6.48739
G1 X96.641 Y93.078 E6.53405
G1 X97.501 Y92.433 E6.58072
G1 X98.392 Y91.832 E6.62738
G1 X99.312 Y91.276 E6.67405
G1 X100.259 Y90.767 E6.72071
G1 X101.23 Y90.305 E6.76737
G1 X102.222 Y89.892 E6.81404
G1 X103.234 Y89.53 E6.8607
G1 X104.263 Y89.218 E6.90736
G1 X105.306 Y88.958 E6.95403
G1 X106.361 Y88.75 E7.00069
G1 X107.424 Y88.595 E7.04735
G1 X108.495 Y88.493 E7.09402
G1 X109.575 Y88.445 E7.14095
G1 X110.451 Y88.446 E7.17897
G1 X111.496 Y88.492 E7.2244
G1 X112.566 Y88.594 E7.27107
G1 X113.63 Y88.748 E7.31773
G1 X114.685 Y88.956 E7.36439
G1 X115.728 Y89.215 E7.41106
G1 X116.757 Y89.527 E7.45772
G1 X117.769 Y89.889 E7.50438
G1 X118.762 Y90.301 E7.55105
G1 X119.733 Y90.762 E7.59771
G1 X120.68 Y91.272 E7.64437
G1 X121.6 Y91.827 E7.69104
G1 X122.491 Y92.428 E7.7377
G1 X123.352 Y93.072 E7.78436
G1 X124.179 Y93.759 E7.83103
G1 X124.971 Y94.486 E7.87769
G1 X125.726 Y95.251 E7.92435
G1 X126.441 Y96.054 E7.97102
G1 X127.116 Y96.891 E8.01768
G1 X127.748 Y97.76 E8.06434
G1 X128.336 Y98.659 E8.11098
G1 X128.985 Y99.783 E8.1673
G1 X129.47 Y100.741 E8.21394
G1 X129.907 Y101.723 E8.2606
G1 X130.295 Y102.726 E8.30727
G1 X130.633 Y103.747 E8.35393
G1 X130.779 Y104.278 E8.37787
G1 X130.347 Y104.397 F18000
G1 F3000
G1 X130.484 Y104.895 E8.40026
G1 X130.713 Y105.922 E8.44595
G1 X130.891 Y106.96 E8.49164
G1 X131.016 Y108.005 E8.53733
G1 X131.09 Y109.055 E8.58302
G1 X131.11 Y110.107 E8.62872
G1 X131.079 Y111.153 E8.67412
G1 X130.996 Y112.202 E8.71981
G1 X130.86 Y113.246 E8.7655
G1 X130.672 Y114.281 E8.8112
G1 X130.433 Y115.307 E8.85689
G1 X130.143 Y116.318 E8.90258
G1 X129.803 Y117.315 E8.94827
G1 X129.414 Y118.293 E8.99397
G1 X128.985 Y119.23 E9.03871
G1 X128.491 Y120.186 E9.08544
G1 X128.072 Y120.912 E9.12184
G1 X127.504 Y121.801 E9.16762
G1 X126.894 Y122.659 E9.21331
G1 X126.242 Y123.486 E9.259
G1 X125.55 Y124.278 E9.3047
G1 X124.819 Y125.036 E9.35039
G1 X124.051 Y125.756 E9.39608
G1 X123.248 Y126.437 E9.44177
G1 X122.412 Y127.076 E9.48747
G1 X121.545 Y127.674 E9.53316
G1 X120.65 Y128.227 E9.57885
G1 X119.728 Y128.736 E9.62454
G1 X118.782 Y129.197 E9.67024
G1 X117.814 Y129.611 E9.71593
G1 X116.827 Y129.976 E9.76162
G1 X115.823 Y130.292 E9.80731
G1 X114.804 Y130.557 E9.85301
G1 X113.774 Y130.771 E9.8987
G1 X112.734 Y130.933 E9.94439
G1 X111.687 Y131.043 E9.99008
G1 X110.636 Y131.101 E10.03578
G1 X109.583 Y131.107 E10.08147
G1 X108.532 Y131.06 E10.12716
G1 X107.484 Y130.96 E10.17285
G1 X106.442 Y130.809 E10.21854
G1 X105.409 Y130.606 E10.26424
G1 X104.388 Y130.351 E10.30993
G1 X103.38 Y130.046 E10.35562
G1 X102.389 Y129.691 E10.40131
G1 X101.417 Y129.287 E10.447
G1 X100.467 Y128.836 E10.4927
G1 X99.54 Y128.337 E10.53839
G1 X98.639 Y127.793 E10.58408
G1 X97.766 Y127.204 E10.62978
G1 X96.924 Y126.573 E10.67547
G1 X96.119 Y125.905 E10.72087
G1 X95.343 Y125.193 E10.76656
G1 X94.604 Y124.444 E10.81225
G1 X93.903 Y123.659 E10.85794
G1 X93.242 Y122.839 E10.90364
G1 X92.623 Y121.988 E10.94933
G1 X92.047 Y121.107 E10.99502
G1 X91.516 Y120.198 E11.04072
G1 X91.032 Y119.266 E11.08632
G1 X90.505 Y118.099 E11.14189
G1 X90.126 Y117.12 E11.18749
G1 X89.796 Y116.12 E11.23318
G1 X89.516 Y115.105 E11.27887
G1 X89.287 Y114.078 E11.32456
G1 X89.109 Y113.04 E11.37026
G1 X88.984 Y111.995 E11.41595
G1 X88.91 Y110.945 E11.46164
G1 X88.89 Y109.893 E11.50733
G1 X88.921 Y108.847 E11.55273
G1 X89.004 Y107.798 E11.59843
G1 X89.14 Y106.754 E11.64412
G1 X89.328 Y105.719 E11.68981
G1 X89.567 Y104.694 E11.7355
G1 X89.857 Y103.682 E11.7812
G1 X90.197 Y102.685 E11.82689
G1 X90.586 Y101.707 E11.87258
G1 X91.024 Y100.75 E11.91827
G1 X91.508 Y99.816 E11.96396
G1 X92.039 Y98.907 E12.00966
G1 X92.614 Y98.025 E12.05535
G1 X93.233 Y97.173 E12.10104
G1 X93.893 Y96.353 E12.14674
G1 X94.593 Y95.568 E12.19243
G1 X95.332 Y94.818 E12.23812
G1 X96.107 Y94.105 E12.28381
G1 X96.916 Y93.433 E12.3295
G1 X97.758 Y92.801 E12.3752
G1 X98.631 Y92.212 E12.42089
G1 X99.532 Y91.668 E12.46658
G1 X100.465 Y91.165 E12.51256
G1 X101.409 Y90.716 E12.55797
G1 X102.381 Y90.312 E12.60366
G1 X103.372 Y89.957 E12.64935
G1 X104.379 Y89.651 E12.69504
G1 X105.4 Y89.396 E12.74074
G1 X106.433 Y89.193 E12.78643
G1 X107.475 Y89.041 E12.83212
G1 X108.523 Y88.941 E12.87781
G1 X109.581 Y88.893 E12.92382
G1 X110.437 Y88.894 E12.96098
G1 X111.468 Y88.94 E13.00577
G1 X112.516 Y89.04 E13.05147
G1 X113.558 Y89.191 E13.09716
G1 X114.591 Y89.394 E13.14285
G1 X115.612 Y89.649 E13.18854
G1 X116.62 Y89.954 E13.23424
G1 X117.611 Y90.309 E13.27993
G1 X118.583 Y90.713 E13.32562
G1 X119.533 Y91.164 E13.37131
G1 X120.46 Y91.663 E13.41701
G1 X121.361 Y92.207 E13.4627
G1 X122.234 Y92.796 E13.50839
G1 X123.076 Y93.427 E13.55408
G1 X123.881 Y94.095 E13.59948
G1 X124.657 Y94.807 E13.64518
G1 X125.396 Y95.556 E13.69087
G1 X126.097 Y96.341 E13.73656
G1 X126.758 Y97.161 E13.78225
G1 X127.377 Y98.012 E13.82794
G1 X127.952 Y98.891 E13.87355
G1 X128.592 Y100 E13.92911
G1 X129.066 Y100.937 E13.97472
G1 X129.494 Y101.899 E14.02041
G1 X129.874 Y102.88 E14.0661
G1 X130.204 Y103.88 E14.11179
G1 X130.336 Y104.359 E14.13336
G1 X129.904 Y104.478 F18000
G1 F3000
G1 X130.05 Y105.006 E14.15715
G1 X130.274 Y106.012 E14.20187
G1 X130.447 Y107.028 E14.24659
G1 X130.57 Y108.05 E14.29131
G1 X130.641 Y109.078 E14.33603
G1 X130.662 Y110.108 E14.38076
G1 X130.631 Y111.131 E14.42519
G1 X130.549 Y112.158 E14.46991
G1 X130.416 Y113.18 E14.51463
G1 X130.232 Y114.194 E14.55936
G1 X129.998 Y115.197 E14.60408
G1 X129.714 Y116.187 E14.6488
G1 X129.381 Y117.162 E14.69352
G1 X129.002 Y118.113 E14.73795
G1 X128.58 Y119.037 E14.78202
G1 X128.099 Y119.968 E14.82755
G1 X127.687 Y120.682 E14.86333
G1 X127.13 Y121.553 E14.9082
G1 X126.533 Y122.393 E14.95292
G1 X125.895 Y123.202 E14.99764
G1 X125.217 Y123.977 E15.04237
G1 X124.501 Y124.719 E15.08709
G1 X123.749 Y125.423 E15.13181
G1 X122.964 Y126.089 E15.17653
G1 X122.146 Y126.715 E15.22125
G1 X121.297 Y127.3 E15.26597
G1 X120.421 Y127.842 E15.31069
G1 X119.519 Y128.339 E15.35541
G1 X118.593 Y128.791 E15.40013
G1 X117.645 Y129.196 E15.44486
G1 X116.679 Y129.553 E15.48958
G1 X115.696 Y129.861 E15.5343
G1 X114.699 Y130.121 E15.57902
G1 X113.69 Y130.33 E15.62374
G1 X112.672 Y130.489 E15.66846
G1 X111.648 Y130.596 E15.71318
G1 X110.619 Y130.653 E15.7579
G1 X109.589 Y130.658 E15.80263
G1 X108.56 Y130.612 E15.84735
G1 X107.534 Y130.514 E15.89207
G1 X106.514 Y130.366 E15.93679
G1 X105.504 Y130.167 E15.98151
G1 X104.504 Y129.918 E16.02623
G1 X103.524 Y129.621 E16.07066
G1 X102.554 Y129.274 E16.11538
G1 X101.603 Y128.879 E16.1601
G1 X100.672 Y128.437 E16.20482
G1 X99.765 Y127.949 E16.24955
G1 X98.883 Y127.416 E16.29427
G1 X98.029 Y126.841 E16.33899
G1 X97.204 Y126.223 E16.38371
G1 X96.416 Y125.569 E16.42814
G1 X95.657 Y124.873 E16.47287
G1 X94.934 Y124.139 E16.51759
G1 X94.248 Y123.371 E16.56231
G1 X93.601 Y122.569 E16.60703
G1 X92.994 Y121.736 E16.65175
G1 X92.431 Y120.874 E16.69647
G1 X91.91 Y119.984 E16.74119
G1 X91.437 Y119.074 E16.78575
G1 X90.917 Y117.923 E16.84057
G1 X90.547 Y116.965 E16.88513
G1 X90.224 Y115.987 E16.92986
G1 X89.95 Y114.994 E16.97458
G1 X89.726 Y113.988 E17.0193
G1 X89.553 Y112.972 E17.06402
G1 X89.43 Y111.95 E17.10874
G1 X89.359 Y110.922 E17.15346
G1 X89.338 Y109.892 E17.19819
G1 X89.369 Y108.869 E17.24262
G1 X89.451 Y107.842 E17.28734
G1 X89.584 Y106.82 E17.33206
G1 X89.768 Y105.806 E17.37678
G1 X90.002 Y104.803 E17.4215
G1 X90.286 Y103.813 E17.46623
G1 X90.619 Y102.838 E17.51095
G1 X91 Y101.881 E17.55567
G1 X91.428 Y100.944 E17.60039
G1 X91.9 Y100.035 E17.64482
G1 X92.419 Y99.145 E17.68954
G1 X92.982 Y98.282 E17.73426
G1 X93.587 Y97.449 E17.77898
G1 X94.233 Y96.646 E17.8237
G1 X94.918 Y95.877 E17.86843
G1 X95.641 Y95.143 E17.91314
G1 X96.4 Y94.445 E17.95787
G1 X97.192 Y93.787 E18.00259
G1 X98.016 Y93.168 E18.04731
G1 X98.87 Y92.592 E18.09203
G1 X99.751 Y92.059 E18.13675
G1 X100.664 Y91.567 E18.18176
G1 X101.589 Y91.128 E18.22619
G1 X102.54 Y90.732 E18.27091
G1 X103.509 Y90.384 E18.31563
G1 X104.495 Y90.085 E18.36036
G1 X105.495 Y89.835 E18.40508
G1 X106.506 Y89.636 E18.4498
G1 X107.525 Y89.487 E18.49452
G1 X108.55 Y89.389 E18.53924
G1 X109.588 Y89.342 E18.58433
G1 X110.424 Y89.343 E18.62061
G1 X111.44 Y89.388 E18.66477
G1 X112.466 Y89.486 E18.7095
G1 X113.486 Y89.634 E18.75422
G1 X114.496 Y89.833 E18.79894
G1 X115.496 Y90.082 E18.84366
G1 X116.482 Y90.381 E18.88838
G1 X117.452 Y90.729 E18.9331
G1 X118.403 Y91.124 E18.97782
G1 X119.334 Y91.566 E19.02254
G1 X120.241 Y92.054 E19.06726
G1 X121.117 Y92.584 E19.11169
G1 X121.971 Y93.159 E19.15642
G1 X122.796 Y93.777 E19.20114
G1 X123.584 Y94.431 E19.24557
G1 X124.343 Y95.127 E19.29029
