; HEADER_BLOCK_START
; generated by AnycubicSlicerNext 1.1.1 on 2026-01-30 at 22:35:19
; total layer number: 50
; filament_density: 1.24
; filament_diameter: 1.75
; max_z_height: 10.04
; HEADER_BLOCK_END

; THUMBNAIL_BLOCK_START

;
; THUMBNAIL_BLOCK_END

; external perimeters extrusion width = 0.42mm
; perimeters extrusion width = 0.45mm
; infill extrusion width = 0.45mm
; solid infill extrusion width = 0.42mm
; top infill extrusion width = 0.42mm
; support material extrusion width = 0.40mm
; first layer extrusion width = 0.50mm

; external perimeters extrusion width = 0.42mm
; perimeters extrusion width = 0.45mm
; infill extrusion width = 0.45mm
; solid infill extrusion width = 0.42mm
; top infill extrusion width = 0.42mm
; support material extrusion width = 0.40mm
; first layer extrusion width = 0.50mm

; EXECUTABLE_BLOCK_START
M201 X2000 Y2000 Z800 E2000
M203 X300 Y300 Z8 E100
M204 P2000 R2000 T2000
M205 X10.00 Y10.00 Z2.00 E5.00 ; sets the jerk limits, mm/sec
;TYPE:Custom
G90 ; use absolute coordinates
M83 ; extruder relative mode
M104 S220 ; set extruder temp
M140 S60 ; set bed temp
M190 S60 ; wait for bed temp
M109 S220 ; wait for extruder temp
G28                                        ; move X/Y/Z to min endstops
G1 Z0.28                                   ; lift nozzle a bit 
G92 E0 
G1 Y3 F1800                                    ; zero the extruded length 
G1 X60  E25 F500                       ; Extrude 25mm of filament in a 5cm line. 
G92 E0                                     ; zero the extruded length again 
G1 E-2 F500                                ; Retract a little 
G1 X70 F4000                              ; Quickly wipe away from the filament line
M117
G90
G21
M82 ; use absolute distances for extrusion
G92 E0
; filament start gcode
M106 S0
;LAYER_CHANGE
;Z:0.24
;HEIGHT:0.24
; BEFORE_LAYER_CHANGE 0 @ 0.24mm
G1 E-2.5 F6000
G92 E0
; AFTER_LAYER_CHANGE 0 @ 0.24mm
;_SET_FAN_SPEED_CHANGING_LAYER
M204 S500
; printing object Unnamed1-Body.stl id:140721665055872 copy 0
G1 X94.303 Y113.511 F18000
G1 Z.24
G1 E2.5 F6000
;TYPE:Brim
;WIDTH:0.5
G1 F3000
G1 X95.065 Y112.988 E2.54008
G1 X95.874 Y112.543 E2.58017
G1 X96.723 Y112.18 E2.62025
G1 X97.603 Y111.901 E2.66034
G1 X98.508 Y111.709 E2.70049
G1 X99.177 Y111.626 E2.72977
G1 X100.001 Y111.589 E2.76557
G1 X119.998 Y111.589 E3.6336
G1 X120.809 Y111.625 E3.66885
G1 X121.48 Y111.707 E3.69819
G1 X122.174 Y111.845 E3.7289
G1 X123.064 Y112.103 E3.7691
G1 X123.693 Y112.345 E3.79836
G1 X124.524 Y112.749 E3.8385
G1 X125.312 Y113.233 E3.87864
G1 X125.881 Y113.654 E3.90936
G1 X126.392 Y114.095 E3.93866
G1 X127.04 Y114.757 E3.97887
G1 X127.489 Y115.302 E4.00951
G1 X128.012 Y116.066 E4.04972
G1 X128.346 Y116.653 E4.07902
G1 X128.649 Y117.294 E4.1098
G1 X128.893 Y117.924 E4.13911
G1 X129.152 Y118.814 E4.17937
G1 X129.248 Y119.262 E4.19924
G1 X129.353 Y119.966 E4.23013
G1 X129.392 Y120.424 E4.25009
G1 X129.411 Y121 E4.27511
G1 X129.411 Y140.996 E5.14314
G1 X129.393 Y141.561 E5.16767
G1 X129.324 Y142.268 E5.19848
G1 X129.209 Y142.934 E5.22784
G1 X129.037 Y143.623 E5.25867
G1 X128.896 Y144.066 E5.27884
G1 X128.655 Y144.694 E5.30803
G1 X128.351 Y145.336 E5.33886
G1 X128.13 Y145.738 E5.35879
G1 X127.768 Y146.31 E5.38816
G1 X127.209 Y147.048 E5.42836
G1 X126.733 Y147.574 E5.45913
G1 X126.405 Y147.893 E5.479
G1 X125.696 Y148.49 E5.51927
G1 X125.147 Y148.877 E5.5484
G1 X124.753 Y149.121 E5.5685
G1 X123.931 Y149.549 E5.60877
G1 X123.276 Y149.821 E5.63954
G1 X122.842 Y149.97 E5.65947
G1 X122.187 Y150.152 E5.68895
G1 X121.74 Y150.248 E5.70883
G1 X120.821 Y150.374 E5.74906
G1 X119.999 Y150.411 E5.78481
G1 X100.004 Y150.411 E6.65276
G1 X99.436 Y150.393 E6.67741
G1 X98.732 Y150.324 E6.70811
G1 X98.066 Y150.209 E6.73747
G1 X97.377 Y150.037 E6.7683
G1 X96.939 Y149.898 E6.78823
G1 X96.311 Y149.657 E6.81742
G1 X95.664 Y149.351 E6.84849
G1 X95.262 Y149.13 E6.86842
G1 X94.686 Y148.766 E6.89797
G1 X94.118 Y148.345 E6.92868
G1 X93.768 Y148.05 E6.94854
G1 X93.105 Y147.403 E6.98874
G1 X92.509 Y146.695 E7.02895
G1 X92.241 Y146.323 E7.04882
G1 X91.877 Y145.75 E7.07831
G1 X91.655 Y145.348 E7.09824
G1 X91.351 Y144.707 E7.12901
G1 X91.027 Y143.834 E7.16945
G1 X90.848 Y143.187 E7.19858
G1 X90.753 Y142.745 E7.21822
G1 X90.626 Y141.821 E7.25869
G1 X90.589 Y140.999 E7.29443
G1 X90.589 Y121.004 E8.16239
G1 X90.607 Y120.439 E8.18692
G1 X90.676 Y119.732 E8.21774
G1 X90.791 Y119.066 E8.2471
G1 X90.963 Y118.377 E8.27793
G1 X91.104 Y117.934 E8.2981
G1 X91.345 Y117.306 E8.32728
G1 X91.649 Y116.664 E8.35812
G1 X91.87 Y116.262 E8.37804
G1 X92.234 Y115.686 E8.4076
G1 X92.655 Y115.118 E8.4383
G1 X92.95 Y114.768 E8.45817
G1 X93.597 Y114.105 E8.49837
G1 X94.273 Y113.536 E8.53672
G1 X94.562 Y113.879 F18000
G1 F3000
G1 X94.57 Y113.872 E8.5372
G1 X95.295 Y113.374 E8.57537
G1 X96.065 Y112.95 E8.61354
G1 X96.885 Y112.598 E8.65228
G1 X97.724 Y112.334 E8.69045
G1 X98.588 Y112.151 E8.72878
G1 X99.22 Y112.073 E8.75644
G1 X100.014 Y112.038 E8.79095
G1 X119.985 Y112.038 E9.65785
G1 X120.767 Y112.072 E9.69181
G1 X121.414 Y112.151 E9.72012
G1 X122.074 Y112.283 E9.74931
G1 X122.926 Y112.53 E9.78783
G1 X123.519 Y112.759 E9.81542
G1 X124.314 Y113.147 E9.85382
G1 X125.056 Y113.602 E9.89162
G1 X125.597 Y114.002 E9.92081
G1 X126.089 Y114.426 E9.94903
G1 X126.71 Y115.061 E9.98757
G1 X127.133 Y115.577 E10.01652
G1 X127.629 Y116.299 E10.05455
G1 X127.95 Y116.865 E10.08277
G1 X128.239 Y117.476 E10.11212
G1 X128.469 Y118.073 E10.13991
G1 X128.718 Y118.929 E10.1786
G1 X128.807 Y119.346 E10.1971
G1 X128.908 Y120.022 E10.22678
G1 X128.944 Y120.454 E10.24559
G1 X128.962 Y121.009 E10.26972
G1 X128.962 Y140.987 E11.13694
G1 X128.945 Y141.528 E11.16042
G1 X128.88 Y142.203 E11.18985
G1 X128.771 Y142.837 E11.21777
G1 X128.606 Y143.497 E11.24731
G1 X128.474 Y143.914 E11.26629
G1 X128.24 Y144.522 E11.29456
G1 X127.953 Y145.128 E11.32368
G1 X127.741 Y145.513 E11.34277
G1 X127.402 Y146.049 E11.3703
G1 X126.859 Y146.766 E11.40933
G1 X126.413 Y147.259 E11.43821
G1 X126.108 Y147.557 E11.45672
G1 X125.417 Y148.138 E11.4959
G1 X124.903 Y148.501 E11.5232
G1 X124.536 Y148.728 E11.54196
G1 X123.735 Y149.145 E11.58112
G1 X123.121 Y149.4 E11.61
G1 X122.713 Y149.541 E11.62874
G1 X122.084 Y149.715 E11.65705
G1 X121.667 Y149.805 E11.67558
G1 X120.774 Y149.927 E11.71469
G1 X119.986 Y149.962 E11.74896
G1 X100.013 Y149.962 E12.61596
G1 X99.469 Y149.945 E12.63955
G1 X98.797 Y149.88 E12.66887
G1 X98.163 Y149.771 E12.6968
G1 X97.503 Y149.606 E12.72634
G1 X97.091 Y149.476 E12.74508
G1 X96.483 Y149.242 E12.77336
G1 X95.872 Y148.953 E12.8027
G1 X95.487 Y148.741 E12.82179
G1 X94.936 Y148.393 E12.85008
G1 X94.4 Y147.995 E12.87906
G1 X94.073 Y147.721 E12.89757
G1 X93.439 Y147.102 E12.93603
G1 X92.86 Y146.414 E12.97506
G1 X92.61 Y146.068 E12.99359
G1 X92.261 Y145.518 E13.0219
G1 X92.052 Y145.139 E13.04064
G1 X91.768 Y144.538 E13.06951
G1 X91.453 Y143.69 E13.10878
G1 X91.285 Y143.084 E13.13607
G1 X91.197 Y142.672 E13.15438
G1 X91.073 Y141.774 E13.19371
G1 X91.038 Y140.986 E13.22799
G1 X91.038 Y121.013 E14.09498
G1 X91.055 Y120.472 E14.11846
G1 X91.12 Y119.797 E14.14789
G1 X91.229 Y119.163 E14.17582
G1 X91.394 Y118.503 E14.20535
G1 X91.526 Y118.086 E14.22433
G1 X91.76 Y117.478 E14.25261
G1 X92.047 Y116.872 E14.28172
G1 X92.259 Y116.487 E14.30081
G1 X92.607 Y115.936 E14.3291
G1 X93.005 Y115.4 E14.35808
G1 X93.279 Y115.073 E14.37659
G1 X93.898 Y114.439 E14.41505
G1 X94.531 Y113.905 E14.451
G1 X94.82 Y114.248 F18000
G1 F3000
G1 X94.837 Y114.234 E14.45196
G1 X95.525 Y113.76 E14.48822
G1 X96.256 Y113.357 E14.52446
G1 X97.035 Y113.022 E14.56128
G1 X97.844 Y112.767 E14.5981
G1 X98.667 Y112.593 E14.6346
G1 X99.263 Y112.52 E14.66066
G1 X100.027 Y112.486 E14.69387
G1 X119.972 Y112.486 E15.55965
G1 X120.724 Y112.519 E15.59233
G1 X121.348 Y112.596 E15.61959
G1 X121.973 Y112.72 E15.64725
G1 X122.787 Y112.958 E15.68409
G1 X123.345 Y113.173 E15.71002
G1 X124.104 Y113.544 E15.74668
G1 X124.8 Y113.971 E15.78216
G1 X125.32 Y114.356 E15.81025
G1 X125.786 Y114.758 E15.83694
G1 X126.379 Y115.365 E15.8738
G1 X126.777 Y115.851 E15.90107
G1 X127.251 Y116.542 E15.93743
G1 X127.553 Y117.076 E15.96407
G1 X127.828 Y117.657 E15.99197
G1 X128.045 Y118.222 E16.01825
G1 X128.282 Y119.033 E16.05493
G1 X128.365 Y119.421 E16.07215
G1 X128.462 Y120.082 E16.10116
G1 X128.514 Y121.019 E16.14185
G1 X128.514 Y140.978 E17.00827
G1 X128.498 Y141.495 E17.03071
G1 X128.435 Y142.138 E17.05876
G1 X128.332 Y142.74 E17.08525
G1 X128.175 Y143.371 E17.11349
G1 X128.052 Y143.761 E17.13127
G1 X127.825 Y144.349 E17.15863
G1 X127.556 Y144.92 E17.18603
G1 X127.353 Y145.289 E17.20428
G1 X127.03 Y145.798 E17.23046
G1 X126.51 Y146.484 E17.26782
G1 X126.092 Y146.945 E17.29483
G1 X125.81 Y147.221 E17.31197
G1 X125.138 Y147.786 E17.35007
G1 X124.659 Y148.124 E17.37555
G1 X124.318 Y148.336 E17.39294
G1 X123.54 Y148.74 E17.43101
G1 X122.965 Y148.979 E17.45801
G1 X122.583 Y149.111 E17.47557
G1 X121.981 Y149.278 E17.5027
G1 X121.594 Y149.361 E17.51987
G1 X120.728 Y149.48 E17.55784
G1 X119.973 Y149.514 E17.59065
G1 X100.022 Y149.514 E18.45668
G1 X99.503 Y149.498 E18.47923
G1 X98.862 Y149.435 E18.50717
G1 X98.26 Y149.332 E18.53367
G1 X97.629 Y149.175 E18.56192
G1 X97.243 Y149.054 E18.57946
G1 X96.655 Y148.827 E18.60683
G1 X96.08 Y148.556 E18.63445
G1 X95.711 Y148.353 E18.65269
G1 X95.186 Y148.02 E18.6797
G1 X94.681 Y147.646 E18.70699
G1 X94.378 Y147.391 E18.72414
G1 X93.764 Y146.792 E18.76142
G1 X93.211 Y146.134 E18.7987
G1 X92.979 Y145.813 E18.81588
G1 X92.645 Y145.285 E18.84301
G1 X92.45 Y144.931 E18.86056
G1 X92.184 Y144.369 E18.88755
G1 X91.878 Y143.546 E18.92565
G1 X91.722 Y142.981 E18.95111
G1 X91.64 Y142.599 E18.96806
G1 X91.52 Y141.727 E19.00627
G1 X91.486 Y140.973 E19.03907
G1 X91.486 Y121.022 E19.90511
G1 X91.502 Y120.505 E19.92754
G1 X91.565 Y119.862 E19.95559
G1 X91.668 Y119.26 E19.98208
G1 X91.825 Y118.629 E20.01032
G1 X91.948 Y118.239 E20.0281
G1 X92.175 Y117.651 E20.05546
G1 X92.444 Y117.08 E20.08286
G1 X92.647 Y116.712 E20.10111
G1 X92.98 Y116.186 E20.12812
G1 X93.354 Y115.681 E20.1554
G1 X93.609 Y115.378 E20.17255
G1 X94.199 Y114.772 E20.20927
G1 X94.79 Y114.274 E20.24284
G1 X95.079 Y114.616 F18000
G1 F3000
G1 X95.105 Y114.595 E20.24427
G1 X95.756 Y114.146 E20.27861
G1 X96.46 Y113.757 E20.31351
G1 X97.198 Y113.441 E20.34839
G1 X97.965 Y113.2 E20.38328
G1 X98.747 Y113.036 E20.41795
G1 X99.306 Y112.967 E20.4424
G1 X100.04 Y112.935 E20.47432
G1 X119.96 Y112.935 E21.33899
G1 X120.682 Y112.966 E21.37037
G1 X121.281 Y113.04 E21.39659
G1 X121.871 Y113.158 E21.4227
G1 X122.649 Y113.385 E21.45787
G1 X123.17 Y113.587 E21.48214
G1 X123.893 Y113.941 E21.51706
G1 X124.544 Y114.34 E21.55023
G1 X125.044 Y114.71 E21.57722
G1 X125.482 Y115.089 E21.60237
G1 X126.048 Y115.669 E21.63756
G1 X126.421 Y116.125 E21.66314
G1 X126.873 Y116.785 E21.69783
G1 X127.157 Y117.287 E21.72289
G1 X127.417 Y117.838 E21.74934
G1 X127.622 Y118.371 E21.77411
G1 X127.845 Y119.138 E21.8088
G1 X127.922 Y119.497 E21.82472
G1 X128.016 Y120.134 E21.85267
G1 X128.065 Y121.035 E21.89182
G1 X128.065 Y140.969 E22.75716
G1 X128.05 Y141.462 E22.77855
G1 X127.991 Y142.073 E22.80523
G1 X127.894 Y142.642 E22.83028
G1 X127.744 Y143.245 E22.85723
G1 X127.63 Y143.609 E22.8738
G1 X127.414 Y144.168 E22.89981
G1 X127.158 Y144.712 E22.92592
G1 X126.964 Y145.064 E22.94334
G1 X126.658 Y145.547 E22.96816
G1 X126.16 Y146.201 E23.00386
G1 X125.772 Y146.631 E23.029
G1 X125.512 Y146.885 E23.04478
G1 X124.859 Y147.434 E23.08179
G1 X124.414 Y147.748 E23.10544
G1 X124.1 Y147.943 E23.12148
G1 X123.345 Y148.336 E23.15844
G1 X122.81 Y148.558 E23.18358
G1 X122.454 Y148.681 E23.19994
G1 X121.878 Y148.842 E23.22589
G1 X121.522 Y148.918 E23.24171
G1 X120.681 Y149.033 E23.27854
G1 X119.96 Y149.065 E23.30989
G1 X100.031 Y149.065 E24.17496
G1 X99.536 Y149.05 E24.19647
G1 X98.927 Y148.991 E24.22303
G1 X98.358 Y148.894 E24.24809
G1 X97.755 Y148.744 E24.27506
G1 X97.396 Y148.631 E24.29139
G1 X96.836 Y148.416 E24.31741
G1 X96.287 Y148.158 E24.34374
G1 X95.936 Y147.964 E24.36114
G1 X95.436 Y147.647 E24.38687
G1 X94.962 Y147.296 E24.41247
G1 X94.683 Y147.062 E24.42826
G1 X94.088 Y146.481 E24.46436
G1 X93.562 Y145.854 E24.49988
G1 X93.349 Y145.559 E24.5157
G1 X93.029 Y145.053 E24.54165
G1 X92.848 Y144.723 E24.55802
G1 X92.6 Y144.2 E24.58313
G1 X92.304 Y143.403 E24.62006
G1 X92.158 Y142.878 E24.6437
G1 X92.083 Y142.527 E24.6593
G1 X91.967 Y141.681 E24.69636
G1 X91.935 Y140.96 E24.72769
G1 X91.935 Y121.031 E25.59278
G1 X91.95 Y120.538 E25.61417
G1 X92.009 Y119.927 E25.64084
G1 X92.106 Y119.358 E25.6659
G1 X92.256 Y118.755 E25.69285
G1 X92.37 Y118.391 E25.70942
G1 X92.586 Y117.832 E25.73543
G1 X92.842 Y117.288 E25.76154
G1 X93.036 Y116.936 E25.77894
G1 X93.353 Y116.436 E25.80468
G1 X93.704 Y115.962 E25.83027
G1 X93.938 Y115.683 E25.84607
G1 X94.5 Y115.106 E25.88105
G1 X95.049 Y114.642 E25.91223
G1 X95.339 Y114.985 F18000
G1 F3000
G1 X95.372 Y114.956 E25.91414
G1 X95.987 Y114.532 E25.94656
G1 X96.651 Y114.164 E25.97952
G1 X97.348 Y113.865 E26.01245
G1 X98.072 Y113.636 E26.04542
G1 X98.826 Y113.478 E26.07883
G1 X99.348 Y113.414 E26.10167
G1 X100.053 Y113.383 E26.13232
G1 X119.947 Y113.383 E26.99587
G1 X120.64 Y113.413 E27.02597
G1 X121.215 Y113.484 E27.05113
G1 X121.77 Y113.596 E27.07569
G1 X122.51 Y113.812 E27.10918
G1 X122.995 Y114.001 E27.13179
G1 X123.682 Y114.337 E27.16498
G1 X124.288 Y114.709 E27.19584
G1 X124.768 Y115.064 E27.22173
G1 X125.179 Y115.42 E27.24533
G1 X125.717 Y115.973 E27.27885
G1 X126.065 Y116.399 E27.30273
G1 X126.495 Y117.027 E27.33577
G1 X126.761 Y117.498 E27.35924
G1 X127.006 Y118.019 E27.38424
G1 X127.198 Y118.52 E27.40751
G1 X127.409 Y119.244 E27.44024
G1 X127.48 Y119.573 E27.45484
G1 X127.57 Y120.185 E27.48172
G1 X127.617 Y121.05 E27.51933
G1 X127.617 Y140.96 E28.38359
G1 X127.602 Y141.429 E28.40395
G1 X127.547 Y142.009 E28.42925
G1 X127.455 Y142.546 E28.45287
G1 X127.313 Y143.119 E28.47853
G1 X127.207 Y143.457 E28.49388
G1 X127.003 Y143.987 E28.51855
G1 X126.76 Y144.505 E28.54337
G1 X126.576 Y144.839 E28.55993
G1 X126.286 Y145.295 E28.58339
G1 X125.809 Y145.921 E28.61756
G1 X125.206 Y146.556 E28.65556
G1 X124.578 Y147.083 E28.69116
G1 X123.873 Y147.555 E28.72797
G1 X123.15 Y147.931 E28.76338
G1 X122.654 Y148.137 E28.78666
G1 X122.324 Y148.251 E28.80184
G1 X121.454 Y148.474 E28.84082
G1 X120.635 Y148.586 E28.87672
G1 X119.947 Y148.617 E28.90661
G1 X100.04 Y148.617 E29.77073
G1 X99.569 Y148.602 E29.7912
G1 X98.991 Y148.547 E29.8164
G1 X98.454 Y148.455 E29.84003
G1 X97.88 Y148.313 E29.8657
G1 X97.548 Y148.209 E29.88083
G1 X97.017 Y148.005 E29.9055
G1 X96.495 Y147.76 E29.93053
G1 X96.161 Y147.576 E29.94707
G1 X95.684 Y147.272 E29.97165
G1 X94.992 Y146.736 E30.00963
G1 X94.413 Y146.17 E30.04476
G1 X93.91 Y145.571 E30.07874
G1 X93.414 Y144.822 E30.11775
G1 X93.245 Y144.515 E30.13293
G1 X93.016 Y144.031 E30.15618
G1 X92.733 Y143.27 E30.19143
G1 X92.527 Y142.459 E30.22777
G1 X92.414 Y141.634 E30.26389
G1 X92.383 Y140.947 E30.29376
G1 X92.383 Y121.04 E31.15789
G1 X92.398 Y120.571 E31.17825
G1 X92.453 Y119.991 E31.20355
G1 X92.545 Y119.454 E31.22718
G1 X92.687 Y118.881 E31.25283
G1 X92.793 Y118.543 E31.26819
G1 X92.997 Y118.013 E31.29285
G1 X93.24 Y117.495 E31.31767
G1 X93.424 Y117.161 E31.33422
G1 X93.728 Y116.684 E31.35881
G1 X94.265 Y115.992 E31.39681
G1 X94.802 Y115.439 E31.43027
G1 X95.308 Y115.01 E31.45907
G1 X95.589 Y115.363 F18000
G1 F3000
G1 X95.788 Y115.204 E31.47011
G1 X96.321 Y114.852 E31.49785
G1 X96.915 Y114.533 E31.52713
G1 X97.504 Y114.284 E31.55487
G1 X98.055 Y114.104 E31.58004
G1 X98.739 Y113.947 E31.61052
G1 X99.351 Y113.864 E31.63732
G1 X99.998 Y113.832 E31.66545
G1 X119.989 Y113.832 E32.53321
G1 X120.739 Y113.873 E32.5658
G1 X121.433 Y113.98 E32.5963
G1 X122.117 Y114.155 E32.62694
G1 X122.801 Y114.406 E32.65856
G1 X123.435 Y114.712 E32.68913
G1 X124.035 Y115.08 E32.7197
G1 X124.603 Y115.51 E32.75062
G1 X125.123 Y115.992 E32.78139
G1 X125.586 Y116.513 E32.81166
G1 X125.914 Y116.954 E32.83552
G1 X126.213 Y117.43 E32.85991
G1 X126.476 Y117.933 E32.88453
G1 X126.717 Y118.505 E32.91149
G1 X126.881 Y118.999 E32.93409
G1 X127.017 Y119.545 E32.95849
